!!!!SEGMENT: pl-cz--ii-121--005_klakowski--missa-in-dis-et-resurrexit.krn
!!!cenid: 18xx:882
!!!COM: Klakowski
!!!COM-rismID: pe30098487
!!!CDT: ~1800-~1899
!!!CNT:
!!!OPR: Missa in Dis
!!!OTL: Et resurrexit
!!!OMV: 005
!!!PDT:
!!!AGN: Sacred; Mass
!!!SMS-siglum: PL-CZ
!!!SMS-shelfmark: II-121
!!!SMS-variant:
!!!SMS-altvar:
!!!SMS-shelfwork: 001-005 M
!!!NIFC-rismSourceID: 300000590
!!!NIFC-rismChildID: 300000590
!!!NIFC-islandoraID: pl-cz:32114
!!!URL-pdf-islandora: https://repozytorium.nifc.pl/islandora/object/pl-cz%3A32114/datastream/PDF/view
!!!URL-scan: https://polish.musicsources.pl/pl/lokalizacje/galeria/rekopisy/6753/1 @EN{Scan on Polish Music Sources Website} @PL{Skany w portalu Dziedzictwo Muzyki Polskiej w otwartym dostępie}
!!!ONB-nifc: UWAGA: części Mszy: Kyrie, Gloria, Credo, Et incarnatus, Et resurrexit, Sanctus, Benedictus, Agnus Dei, Dona nobis
!!!OMD: Allegro molto
!!!AIN: 1 alto 1 bass 2 clars 2 cor 1 organ 1 soprn 1 tenor 1 viola 2 violn
!!!key: E-
**kern	**fba	**dynam	**kern	**dynam	**kern	**dynam	**kern	**dynam	**kern	**text	**kern	**text	**kern	**text	**kern	**text	**kern	**dynam	**kern	**dynam	**kern	**dynam	**kern	**dynam
*part12	*part12	*part12	*part11	*part11	*part10	*part10	*part9	*part9	*part8	*part8	*part7	*part7	*part6	*part6	*part5	*part5	*part4	*part4	*part3	*part3	*part2	*part2	*part1	*part1
*staff12	*staff12	*	*staff11	*	*staff10	*	*staff9	*	*staff8	*staff8	*staff7	*staff7	*staff6	*staff6	*staff5	*staff5	*staff4	*	*staff3	*	*staff2	*	*staff1	*
*I"Organo	*	*	*I"Alto Viola	*	*I"Violino Secondo	*	*I"Violino Primo.	*	*I"Baſso.	*	*I"Tenore;	*	*I"Alto	*	*I"Canto	*	*I"Corno Secundo in Diſ.	*	*I"Corno Primo in D.ſ	*	*I"Clarinetto Secundo	*	*I"Clarinetto Primo in B.	*
*I'org	*	*	*I'a-vla	*	*I'vl 2	*	*I'vl 1	*	*I'B	*	*I'T	*	*I'A	*	*I'S	*	*I'cor 2	*	*I'cor 1	*	*I'cl 2	*	*I'cl 1	*
*Iorgan	*	*	*Iviola	*	*Ivioln	*	*Ivioln	*	*Ibass	*	*Itenor	*	*Ialto	*	*Isoprn	*	*Icor	*	*Icor	*	*Iclars	*	*Iclars	*
*ICklav	*	*	*ICstr	*	*ICstr	*	*ICstr	*	*ICvox	*	*ICvox	*	*ICvox	*	*ICvox	*	*ICbras	*	*ICbras	*	*ICww	*	*ICww	*
*clefF4	*	*	*clefC3	*	*clefG2	*	*clefG2	*	*clefF4	*	*clefC4	*	*clefC3	*	*clefC1	*	*clefG2	*	*clefG2	*	*clefG2	*	*clefG2	*
*	*	*	*	*	*	*	*	*	*	*	*	*	*	*	*	*	*ITrd5c9	*	*ITrd5c9	*	*ITrd1c2	*	*ITrd1c2	*
*	*	*	*	*	*	*	*	*	*ok[b-e-b-]	*	*	*	*	*	*ok[3-b-a-]	*	*	*	*	*	*ok[b-e-]	*	*	*
*k[b-e-a-]	*	*	*k[b-e-a-]	*	*k[b-e-a-]	*	*k[b-e-a-]	*	*k[b-e-a-]	*	*k[b-e-a-]	*	*k[b-e-a-]	*	*k[b-e-a-]	*	*k[b-e-a-]	*	*k[b-e-a-]	*	*k[b-e-a-]	*	*k[b-e-a-]	*
*E-:	*	*	*E-:	*	*E-:	*	*E-:	*	*E-:	*	*E-:	*	*E-:	*	*E-:	*	*E-:	*	*E-:	*	*E-:	*	*E-:	*
*M4/4	*	*	*M4/4	*	*M4/4	*	*M4/4	*	*M4/4	*	*M4/4	*	*M4/4	*	*M4/4	*	*M4/4	*	*M4/4	*	*M4/4	*	*M4/4	*
*met(c)	*	*	*met(c)	*	*met(c)	*	*met(c)	*	*met(c)	*	*met(c)	*	*met(c)	*	*met(c)	*	*met(c)	*	*met(c)	*	*met(c)	*	*met(c)	*
*all\right	*	*	*all\right	*	*all\right	*	*all\right	*	*all\right	*	*all\right	*	*all\right	*	*all\right	*	*all\right	*	*all\right	*	*all\right	*	*all\right	*
=1	=1	=1	=1	=1	=1	=1	=1	=1	=1	=1	=1	=1	=1	=1	=1	=1	=1	=1	=1	=1	=1	=1	=1	=1
!LO:TX:a:t=allo molto	!	!	!	!	!	!	!	!	!	!	!LO:TX:a:t=Alle. Mol.	!	!	!	!LO:TX:a:t=allo	!	!	!	!	!	!LO:TX:a:t=allo Molto	!	!	!
!	!	!	!LO:TX:a:t=allegro Molto	!	!LO:TX:a:t=allo Mode	!LO:DY:b:t=f&colon;:rj	!LO:TX:a:t=allo Molto	!LO:DY:a:t=f.	!LO:TX:a:t=allo Molto	!	!	!	!LO:TX:a:t=allo Mode	!	!	!	!LO:TX:a:t=allo mol	!	!LO:TX:a:t=allo Molto	!	!LO:TX:t=P:problem=brak klucza i znaków	!	!LO:TX:a:t=allo Molto	!LO:DY:a
8E-\L	.	.	8e-\L	.	(16e-\LL	f	(16e-\LL	f	1r	.	1r	.	1r	.	1r	.	4E-/	.	4e-\	.	4b-\	.	4ee-\	ff
.	.	.	.	.	16ee-\)	.	16ee-\)	.	.	.	.	.	.	.	.	.	.	.	.	.	.	.	.	.
8e-\	.	.	8e-\	.	16ee-|>\	.	16ee-|>\	.	.	.	.	.	.	.	.	.	.	.	.	.	.	.	.	.
.	.	.	.	.	16ee-|>\JJ	.	16ee-|>\JJ	.	.	.	.	.	.	.	.	.	.	.	.	.	.	.	.	.
8e-\	.	.	8e-\	.	(16ee-\LL	.	(16ee-\LL	.	.	.	.	.	.	.	.	.	4E-/	.	4e-\	.	8ee-\L	.	8gg\L	.
.	.	.	.	.	16gg\)	.	16gg\)	.	.	.	.	.	.	.	.	.	.	.	.	.	.	.	.	.
!	!	!	!	!LO:DY:b	!	!	!	!	!	!	!	!	!	!	!	!	!	!	!	!	!	!	!	!
8B-\J	.	.	8b-\J	f	16b-|>\	.	16b-|>\	.	.	.	.	.	.	.	.	.	.	.	.	.	8gg\J	.	8bb-\J	.
.	.	.	.	.	16b-|>\JJ	.	16b-|>\JJ	.	.	.	.	.	.	.	.	.	.	.	.	.	.	.	.	.
8B-\L	.	.	8b-\L	.	(16b-\LL	.	(16b-\LL	.	.	.	.	.	.	.	.	.	4E-/	.	4e-\	.	8gg\L	.	8bb-\L	.
.	.	.	.	.	16ee-\)	.	16ee-\)	.	.	.	.	.	.	.	.	.	.	.	.	.	.	.	.	.
8G\	.	.	8g\	.	16g|>\	.	16g|>\	.	.	.	.	.	.	.	.	.	.	.	.	.	8ee-\	.	8gg\	.
.	.	.	.	.	16g|>\JJ	.	16g|>\JJ	.	.	.	.	.	.	.	.	.	.	.	.	.	.	.	.	.
8G\	.	.	8g\	.	(16g\LL	.	(16g/LL	.	.	.	.	.	.	.	.	.	4E-/	.	4r	.	8ee-\	.	8gg\	.
.	.	.	.	.	16b-\)	.	16b-/)	.	.	.	.	.	.	.	.	.	.	.	.	.	.	.	.	.
8E-\J	.	.	8e-\J	.	16e-|>\	.	16e-|</	.	.	.	.	.	.	.	.	.	.	.	.	.	8b-\J	.	8ee-\J	.
.	.	.	.	.	16e-|>\JJ	.	16e-|</JJ	.	.	.	.	.	.	.	.	.	.	.	.	.	.	.	.	.
=2	=2	=2	=2	=2	=2	=2	=2	=2	=2	=2	=2	=2	=2	=2	=2	=2	=2	=2	=2	=2	=2	=2	=2	=2
*	*	*	*	*	*^	*	*	*	*	*	*	*	*	*	*	*	*	*	*	*	*	*	*	*
!	!	!	!	!	!	!	!	!	!	!	!	!	!	!	!	!	!	!	!	!	!	!	!	!LO:N:vis=16r	!
4E-\	.	.	4e-\	.	8ryy	4B-/	.	4B-/	.	8r	.	8r	.	8r	.	8r	.	4E-/	.	4e-\	.	8r	p	8r	.
!	!	!	!	!	!LO:N:cue	!	!	!	!	!	!	!	!	!	!	!	!	!	!	!	!	!LO:TX:a:t=Solo	!	!	!LO:DY:b:t=p.
.	.	.	.	.	8e-\L	.	.	.	.	8E-\	Et	8e-\	Et	8b-\	Et	8gg\	Et	.	.	.	.	8ee-\L	.	8gg\L	p
!LO:TX:a:t=Solo	!	!	!	!	!LO:N:cue	!	!	!	!	!	!	!	!	!	!	!	!	!	!	!	!	!	!	!	!
4r	.	.	4r	.	8e-\	4ra	.	4r	.	8E-\	re-	8e-\	re-	8b-\	re-	8gg\	re-	4r	.	4r	.	8ee-\	.	8gg\	.
!	!	!	!	!	!LO:N:cue	!	!	!	!	!	!	!	!	!	!	!	!	!	!	!	!	!	!	!	!
.	.	.	.	.	8e-\J	.	.	.	.	8E-\	-sur-	8e-\	-ſur-	8b-\	-sur-	8gg\	-sur-	.	.	.	.	8ee-\J	.	8gg\J	.
!	!	!	!	!	!LO:N:cue	!	!	!	!	!	!	!	!	!	!	!	!	!	!	!	!	!	!	!	!
4E-\	5 3	.	2r	.	4g\	2rb	.	2r	.	4E-\	-re-	4e-\	-re-	4g\	-re-	4bb-\	-re-	2r	.	2r	.	4gg\	.	4bb-\	.
!	!	!	!	!	!LO:N:cue	!	!	!	!	!	!	!	!	!	!	!	!	!	!	!	!	!	!	!	!
4E-\	4 2	.	.	.	8f\L	.	.	.	.	4E-\	-xit	8d\L	-xit	8f\L	-xit	8aa-\L	-xit	.	.	.	.	(8ff\L	.	8aa-\L	.
!	!	!	!	!	!LO:N:cue	!	!	!	!	!	!	!	!	!	!	!	!	!	!	!	!	!	!	!	!
.	3 1	.	.	.	8e-\J	.	.	.	.	.	.	8e-\J	.	8e-\J	.	8gg\J	.	.	.	.	.	8ee-\J)	.	8gg\J	.
*	*	*	*	*	*v	*v	*	*	*	*	*	*	*	*	*	*	*	*	*	*	*	*	*	*	*
=3	=3	=3	=3	=3	=3	=3	=3	=3	=3	=3	=3	=3	=3	=3	=3	=3	=3	=3	=3	=3	=3	=3	=3	=3
!LO:TX:t=P:problem=mixed beam	!	!	!	!	!	!	!	!	!	!	!	!	!	!	!	!	!	!	!	!	!	!	!	!
!LO:TX:a:t=Tutti	!	!	!LO:TX:t=P:problem=mixed beam	!	!	!	!	!	!	!	!	!	!	!	!	!	!LO:TX:t=P:problem=brak 1 taktu	!	!	!	!	!	!	!
8BB-/L	.	.	8B-/L	.	(16B-/LL	.	(16b-\LL	.	1r	.	1r	.	1r	.	1r	.	1ryy	.	4b-\	.	4dd\	.	4bb-\	.
.	.	.	.	.	16b-/)	.	16bb-\)	.	.	.	.	.	.	.	.	.	.	.	.	.	.	.	.	.
8B-\	.	.	8b-\	.	16b-|</	.	16bb-|>\	.	.	.	.	.	.	.	.	.	.	.	.	.	.	.	.	.
.	.	.	.	.	16b-|</JJ	.	16bb-|>\JJ	.	.	.	.	.	.	.	.	.	.	.	.	.	.	.	.	.
8B-\	.	.	8b-\	.	(16b-\LL	.	(16bb-\LL	.	.	.	.	.	.	.	.	.	.	.	4b-\	.	8dd\L	.	8bb-\L	f
.	.	.	.	.	16dd\)	.	16ddd\)	.	.	.	.	.	.	.	.	.	.	.	.	.	.	.	.	.
8F\J	.	.	8f\J	.	16f|>\	.	16ff|>\	.	.	.	.	.	.	.	.	.	.	.	.	.	8dd\J	.	8ff\J	.
.	.	.	.	.	16f|>\JJ	.	16ff\JJ	.	.	.	.	.	.	.	.	.	.	.	.	.	.	.	.	.
!	!	!	!	!	!LO:LB:g=original	!	!	!	!	!	!	!	!	!	!	!	!	!	!	!	!	!	!	!
=-	=-	=-	=-	=-	=-	=-	=-	=-	=-	=-	=-	=-	=-	=-	=-	=-	=-	=-	=-	=-	=-	=-	=-	=-
8F\L	.	.	8f\L	.	(16f/LL	.	(16ff\LL	.	.	.	.	.	.	.	.	.	.	.	4b-\	.	8dd\L	f	8ff\L	.
.	.	.	.	.	16b-/)	.	16bb-\)	.	.	.	.	.	.	.	.	.	.	.	.	.	.	.	.	.
8D\	.	.	8d\	.	16d|</	.	16dd|>\	.	.	.	.	.	.	.	.	.	.	.	.	.	8b-\	.	8dd\	.
.	.	.	.	.	16d|</JJ	.	16dd|>\JJ	.	.	.	.	.	.	.	.	.	.	.	.	.	.	.	.	.
8D\	.	.	8d\	.	(16d/LL	.	(16dd\LL	.	.	.	.	.	.	.	.	.	.	.	4b-\	.	8b-\	.	8dd\	.
.	.	.	.	.	16f/)	.	16ff\)	.	.	.	.	.	.	.	.	.	.	.	.	.	.	.	.	.
8BB-\J	.	.	8B-\J	.	16B-|</	.	16b-|>\	.	.	.	.	.	.	.	.	.	.	.	.	.	8f\J	.	8b-\J	.
.	.	.	.	.	16B-|</JJ	.	16b-|>\JJ	.	.	.	.	.	.	.	.	.	.	.	.	.	.	.	.	.
!	!	!	!LO:LB:g=original	!	!	!	!	!	!	!	!LO:LB:g=original	!	!	!	!	!	!	!	!	!	!LO:LB:g=original	!	!	!
=4	=4	=4	=4	=4	=4	=4	=4	=4	=4	=4	=4	=4	=4	=4	=4	=4	=4	=4	=4	=4	=4	=4	=4	=4
*	*	*	*	*	*^	*	*	*	*	*	*	*	*	*	*	*	*	*	*	*	*	*	*	*
4BB-/	.	.	4B-/	.	8ryy	4B-/	.	4f/	.	8r	.	8r	.	8r	.	8r	.	4B-/	.	4f\	.	8r	p	8r	p
!	!	!	!	!	!LO:N:cue	!	!	!	!	!	!	!	!	!	!	!	!	!	!	!	!	!	!	!	!
.	.	.	.	.	8d\L	.	.	.	.	8BB-/	ter-	8d\	ter-	8b-\	ter-	8ff\	ter-	.	.	.	.	8dd\L	.	8ff\L	.
!LO:TX:a:t=Solo	!	!	!	!	!LO:N:cue	!	!	!	!	!	!	!	!	!	!	!	!	!	!	!	!	!	!	!	!
4r	.	.	4r	.	8d\	4ra	.	4r	.	8D/	-ti-	8d\	-ti-	8b-\	-ti-	8ff\	-ti-	4r	.	4r	.	8dd\	.	8ff\	.
!	!	!	!	!	!LO:N:cue	!	!	!	!	!	!	!	!	!	!	!	!	!	!	!	!	!	!	!	!
.	.	.	.	.	8d\J	.	.	.	.	8D/	-a	8d\	-a	8b-\	-a	8ff\	-a	.	.	.	.	8dd\J	.	8ff\J	.
!	!	!	!	!	!LO:N:cue	!	!	!	!	!	!	!	!	!	!	!	!	!	!	!	!	!	!	!	!
4B-\	7 5	.	2r	.	4f\	2rb	.	2r	.	4B-\	di-	4d\	di-	4f\	di-	4aa-\	di-	2r	.	2r	.	4ff\	.	4aa-\	.
!	!	!	!	!	!LO:N:cue	!	!	!	!	!	!	!	!	!	!	!	!	!	!	!	!	!	!	!	!
4B-\	6 4	.	.	.	8e-\L	.	.	.	.	4B-\	-e	4B-\	-e	8e-\L	-e	8gg\L	-e	.	.	.	.	(8ee-\L	.	8gg\L	.
!	!	!	!	!	!LO:N:cue	!	!	!	!	!	!	!	!	!	!	!	!	!	!	!	!	!	!	!	!
.	5 3	.	.	.	8d\J	.	.	.	.	.	.	.	.	8d\J	.	8ff\J	.	.	.	.	.	8dd\J)	.	8ff\J	.
*	*	*	*	*	*v	*v	*	*	*	*	*	*	*	*	*	*	*	*	*	*	*	*	*	*	*
!	!	!	!	!	!	!	!	!	!	!	!	!	!LO:LB:g=original	!	!	!	!	!	!	!	!	!	!	!
=5	=5	=5	=5	=5	=5	=5	=5	=5	=5	=5	=5	=5	=5	=5	=5	=5	=5	=5	=5	=5	=5	=5	=5	=5
*2\right	*	*	*2\right	*	*	*	*	*	*	*	*	*	*	*	*	*	*	*	*	*	*	*	*	*
*tremolo	*	*	*tremolo	*	*tremolo	*	*	*	*	*	*	*	*	*	*	*	*	*	*	*	*	*	*	*
!LO:TX:a:t=Tutti	!	!	!	!	!	!LO:DY:b:rj	!	!	!	!	!	!	!	!	!	!	!	!LO:DY:b:rj	!	!	!	!	!	!
8E-\L	5_ 3_	.	8e-\L	.	16B-/LL	f	(16e-/LL	.	4E-\	se-	4G/	se-	4b-\	se-	4ee-\	se-	1E-	f	1e-	f	1b-	.	1ee-	f
.	.	.	.	.	16B-/	.	16ee-/)	.	.	.	.	.	.	.	.	.	.	.	.	.	.	.	.	.
8E-\	.	.	8e-\	.	16B-/	.	16ee-|</	.	.	.	.	.	.	.	.	.	.	.	.	.	.	.	.	.
.	.	.	.	.	16B-/	.	16ee-|</JJ	.	.	.	.	.	.	.	.	.	.	.	.	.	.	.	.	.
8E-\	.	.	8e-\	.	16B-/	.	(16ee-/LL	.	8E-\	-cun-	8G/	-cun-	8b-\	-cun-	8ee-\	-cun-	.	.	.	.	.	.	.	.
.	.	.	.	.	16B-/	.	16b-/)	.	.	.	.	.	.	.	.	.	.	.	.	.	.	.	.	.
8E-\J	.	.	8e-\J	.	16B-/	.	16b-|</	.	8E-\	-du(m)	8G/	-du(m)	8b-\	-dum	8ee-\	-dum	.	.	.	.	.	.	.	.
.	.	.	.	.	16B-/JJ	.	16b-|</JJ	.	.	.	.	.	.	.	.	.	.	.	.	.	.	.	.	.
*Xtremolo	*	*	*	*	*	*	*	*	*	*	*	*	*	*	*	*	*	*	*	*	*	*	*	*
8E-\L	.	.	8e-\L	.	16B-/LL	.	(16b-/LL	.	4E-\	scrip-	4G/	scrip-	4b-\	scrip-	4ee-\	scrip-	.	.	.	.	.	.	.	.
.	.	.	.	.	16B-/	.	16g/)	.	.	.	.	.	.	.	.	.	.	.	.	.	.	.	.	.
8E-\	x x	.	8e-\	.	16B-/	.	16g|</	.	.	.	.	.	.	.	.	.	.	.	.	.	.	.	.	.
.	.	.	.	.	16B-/	.	16g|</JJ	.	.	.	.	.	.	.	.	.	.	.	.	.	.	.	.	.
8G\	.	.	8e-\	.	16B-/	.	(16g/LL	.	8E-\	-tu-	8G/	-tu-	8b-\	-tu-	8ee-\	-tu-	.	.	.	.	.	.	.	.
.	.	.	.	.	16B-/	.	16e-/)	.	.	.	.	.	.	.	.	.	.	.	.	.	.	.	.	.
8G\J	.	.	8e-\J	.	16B-/	.	16e-|</	.	8E-\	-ras	8G/	-raſ	8b-\	-ras	8ee-\	-ras	.	.	.	.	.	.	.	.
.	.	.	.	.	16B-/JJ	.	16e-|</JJ	.	.	.	.	.	.	.	.	.	.	.	.	.	.	.	.	.
!	!	!	!	!	!	!	!LO:LB:g=original	!	!LO:LB:g=original	!	!	!	!	!	!LO:LB:g=original	!	!	!	!	!	!	!	!LO:LB:g=original	!
=6	=6	=6	=6	=6	=6	=6	=6	=6	=6	=6	=6	=6	=6	=6	=6	=6	=6	=6	=6	=6	=6	=6	=6	=6
*tremolo	*	*	*	*	*	*	*	*	*	*	*	*	*	*	*	*	*	*	*	*	*	*	*	*
8A-\L	5_ 3_	.	8e-\L	.	16c/LL	.	(16e-/LL	.	4A-\	et	4A-/	et	4cc\	et	4ee-\	et	1E-	.	1e-	.	1cc	.	1ee-	.
.	.	.	.	.	16c/	.	16ee-/)	.	.	.	.	.	.	.	.	.	.	.	.	.	.	.	.	.
8A-\	.	.	8e-\	.	16c/	.	16ee-|</	.	.	.	.	.	.	.	.	.	.	.	.	.	.	.	.	.
.	.	.	.	.	16c/	.	16ee-|</JJ	.	.	.	.	.	.	.	.	.	.	.	.	.	.	.	.	.
8A-\	.	.	8e-\	.	16c/	.	(16ee-/LL	.	4A-\	As-	4A-/	As-	4cc\	As-	4ee-\	As-	.	.	.	.	.	.	.	.
.	.	.	.	.	16c/	.	16cc/)	.	.	.	.	.	.	.	.	.	.	.	.	.	.	.	.	.
8A-\J	.	.	8e-\J	.	16c/	.	16cc|</	.	.	.	.	.	.	.	.	.	.	.	.	.	.	.	.	.
.	.	.	.	.	16c/JJ	.	16cc|</JJ	.	.	.	.	.	.	.	.	.	.	.	.	.	.	.	.	.
8A-\L	x x	.	8e-\L	.	16c/LL	.	(16cc/LL	.	4A-\	-cen-	4A-/	-cen-	4cc\	-cen-	4ee-\	-cen-	.	.	.	.	.	.	.	.
.	.	.	.	.	16c/	.	16a-/)	.	.	.	.	.	.	.	.	.	.	.	.	.	.	.	.	.
8A-\	.	.	8e-\	.	16c/	.	16a-|</	.	.	.	.	.	.	.	.	.	.	.	.	.	.	.	.	.
.	.	.	.	.	16c/	.	16a-|</JJ	.	.	.	.	.	.	.	.	.	.	.	.	.	.	.	.	.
8A-\	.	.	8e-\	.	16c/	.	(16a-/LL	.	8A-\	-dit	8A-/	-dit	8cc\	-dit	8ee-\	-dit	.	.	.	.	.	.	.	.
.	.	.	.	.	16c/	.	16e-/)	.	.	.	.	.	.	.	.	.	.	.	.	.	.	.	.	.
8A-\J	.	.	8e-\J	.	16c/	.	16e-|</	.	8A-\	in	8A-/	in	8cc\	in	8ee-\	in	.	.	.	.	.	.	.	.
.	.	.	.	.	16c/JJ	.	16e-|</JJ	.	.	.	.	.	.	.	.	.	.	.	.	.	.	.	.	.
*Xtremolo	*	*	*	*	*	*	*	*	*	*	*	*	*	*	*	*	*	*	*	*	*	*	*	*
=7	=7	=7	=7	=7	=7	=7	=7	=7	=7	=7	=7	=7	=7	=7	=7	=7	=7	=7	=7	=7	=7	=7	=7	=7
8G\L	6_ 3_	.	8e-\L	.	16B-/LL	.	(16e-/LL	.	4G\	Cae-	4G/	Cae-	4b-\	Cae-	4ee-\	Cae-	1E-	.	1e-	.	1b-	.	1ee-	.
.	.	.	.	.	16B-/	.	16ee-/)	.	.	.	.	.	.	.	.	.	.	.	.	.	.	.	.	.
8G\	x x	.	8e-\	.	16B-/	.	16ee-|</	.	.	.	.	.	.	.	.	.	.	.	.	.	.	.	.	.
.	.	.	.	.	16B-/	.	16ee-|</JJ	.	.	.	.	.	.	.	.	.	.	.	.	.	.	.	.	.
8E-\	.	.	8e-\	.	16B-/	.	(16ee-/LL	.	4E-\	-lu(m)	4G/	-lum	4b-\	-lu(m)	4ee-\	-lum	.	.	.	.	.	.	.	.
.	.	.	.	.	16B-/	.	16b-/)	.	.	.	.	.	.	.	.	.	.	.	.	.	.	.	.	.
8E-\J	.	.	8e-\J	.	16B-/	.	16b-|</	.	.	.	.	.	.	.	.	.	.	.	.	.	.	.	.	.
.	.	.	.	.	16B-/JJ	.	16b-|</JJ	.	.	.	.	.	.	.	.	.	.	.	.	.	.	.	.	.
*tremolo	*	*	*	*	*	*	*	*	*	*	*	*	*	*	*	*	*	*	*	*	*	*	*	*
8E-\L	.	.	8e-\L	.	16B-/LL	.	(16b-/LL	.	4E-\	se-	4G/	se-	4b-\	se-	4ee-\	se-	.	.	.	.	.	.	.	.
.	.	.	.	.	16B-/	.	16g/)	.	.	.	.	.	.	.	.	.	.	.	.	.	.	.	.	.
8E-\	.	.	8e-\	.	16B-/	.	16g|</	.	.	.	.	.	.	.	.	.	.	.	.	.	.	.	.	.
.	.	.	.	.	16B-/	.	16g|</JJ	.	.	.	.	.	.	.	.	.	.	.	.	.	.	.	.	.
8E-\	.	.	8e-\	.	16B-/	.	(16g/LL	.	8E-\	-det	8G/	-det	8b-\	-det	8ee-\	-det	.	.	.	.	.	.	.	.
.	.	.	.	.	16B-/	.	16e-/)	.	.	.	.	.	.	.	.	.	.	.	.	.	.	.	.	.
8E-\J	.	.	8e-\J	.	16B-/	.	16e-|</	.	8E-\	ad	8G/	ad	8b-\	ad	8ee-\	ad	.	.	.	.	.	.	.	.
.	.	.	.	.	16B-/JJ	.	16e-|</JJ	.	.	.	.	.	.	.	.	.	.	.	.	.	.	.	.	.
!	!	!	!	!	!	!	!	!	!	!	!LO:PB:g=original	!	!	!	!	!	!	!	!LO:LB:g=original	!	!	!	!	!
=8	=8	=8	=8	=8	=8	=8	=8	=8	=8	=8	=8	=8	=8	=8	=8	=8	=8	=8	=8	=8	=8	=8	=8	=8
*	*	*	*	*	*	*	*	*	*	*	*	*	*	*	*	*	*	*	*2\right	*	*2\right	*	*2\right	*
!	!	!	!	!	!	!	!LO:TX:t=P:problem=mixed beam	!	!	!	!	!	!	!	!	!	!	!	!	!	!	!	!	!
8D\L	6 5	.	8f\L	.	16f/LL	.	(16d/LL	.	4D\	dex-	4F/	dex-	4a-\	dex-	4ff\	dex-	2B-/	.	2f\	.	2cc\	.	2ff\	.
.	.	.	.	.	16f/	.	16aa-\)	.	.	.	.	.	.	.	.	.	.	.	.	.	.	.	.	.
8D\	.	.	8f\	.	16f/	.	16aa-|>\	.	.	.	.	.	.	.	.	.	.	.	.	.	.	.	.	.
.	.	.	.	.	16f/	.	16aa-|>\JJ	.	.	.	.	.	.	.	.	.	.	.	.	.	.	.	.	.
8D\	.	.	8f\	.	16f/	.	(16aa-\LL	.	8D\	-te-	8F/	-te-	8a-\	-te-	8ff\	-te-	.	.	.	.	.	.	.	.
.	.	.	.	.	16f/	.	16ff\)	.	.	.	.	.	.	.	.	.	.	.	.	.	.	.	.	.
8D\J	.	.	8f\J	.	16f/	.	16ff|>\	.	8D\	-ra(m)	8F/	-ram	8a-\	-ram	8ff\	-ram	.	.	.	.	.	.	.	.
.	.	.	.	.	16f/JJ	.	16ff|>\JJ	.	.	.	.	.	.	.	.	.	.	.	.	.	.	.	.	.
!	!	!	!	!	!	!	!	!	!	!	!	!	!	!	!	!	!LO:LB:g=original	!	!	!	!	!	!	!
=-	=-	=-	=-	=-	=-	=-	=-	=-	=-	=-	=-	=-	=-	=-	=-	=-	=-	=-	=-	=-	=-	=-	=-	=-
*	*	*	*	*	*	*	*	*	*2\right	*	*2\right	*	*2\right	*	*2\right	*	*	*	*	*	*	*	*	*
8B-\L	7	.	8f\L	.	16f/LL	.	(16ff\LL	.	2B-\	Pa-	2B-\	Pa-	2f\	Pa-	2dd\	Pa-	2B-/	.	2f\	.	2dd\	.	2ff\	.
.	.	.	.	.	16f/	.	16dd\)	.	.	.	.	.	.	.	.	.	.	.	.	.	.	.	.	.
8B-\	.	.	8f\	.	16f/	.	16dd|>\	.	.	.	.	.	.	.	.	.	.	.	.	.	.	.	.	.
.	.	.	.	.	16f/	.	16dd|>\JJ	.	.	.	.	.	.	.	.	.	.	.	.	.	.	.	.	.
8B-\	.	.	8f\	.	16f/	.	(16dd\LL	.	.	.	.	.	.	.	.	.	.	.	.	.	.	.	.	.
.	.	.	.	.	16f/	.	16b-\)	.	.	.	.	.	.	.	.	.	.	.	.	.	.	.	.	.
8B-\J	.	.	8f\J	.	16f/	.	16b-|>\	.	.	.	.	.	.	.	.	.	.	.	.	.	.	.	.	.
.	.	.	.	.	16f/JJ	.	16b-|>\JJ	.	.	.	.	.	.	.	.	.	.	.	.	.	.	.	.	.
*Xtremolo	*	*	*Xtremolo	*	*Xtremolo	*	*	*	*	*	*	*	*	*	*	*	*	*	*	*	*	*	*	*
!LO:LB:g=original	!	!	!	!	!	!	!	!	!	!	!	!	!LO:LB:g=original	!	!	!	!	!	!	!	!	!	!	!
=9	=9	=9	=9	=9	=9	=9	=9	=9	=9	=9	=9	=9	=9	=9	=9	=9	=9	=9	=9	=9	=9	=9	=9	=9
!	!	!	!	!	!LO:TX:t=P:problem=mixed beam	!	!LO:TX:t=P:problem=mixed beam	!	!	!	!	!	!	!	!	!	!	!	!	!	!	!	!	!
8e-|>\L	.	.	16g|>\LL	.	16e-/LL	.	16e-/LL	.	4E-\	-tris,	4B-\	-tris	4g\	-tris	4ee-\	-tris	4G/	.	4e-\	.	4b-\	.	4ee-\	.
.	.	.	16e-|>\	.	16ee-|>\	.	16ee-|>\	.	.	.	.	.	.	.	.	.	.	.	.	.	.	.	.	.
16d|>\L	.	.	16d|>\	.	16dd|>\	.	16dd|>\	.	.	.	.	.	.	.	.	.	.	.	.	.	.	.	.	.
16c|>\JJ	.	.	16c|>\JJ	.	16cc|>\JJ	.	16cc|>\JJ	.	.	.	.	.	.	.	.	.	.	.	.	.	.	.	.	.
16B-|>\LL	.	.	16B-|</LL	.	16b-|</LL	.	16b-|</LL	.	4r	.	4r	.	4r	.	4r	.	4r	.	4r	.	4r	.	4r	.
16A-|>\	.	.	16A-|</	.	16a-|</	.	16a-|</	.	.	.	.	.	.	.	.	.	.	.	.	.	.	.	.	.
16G|>\	.	.	16G|</	.	16g|</	.	16g|</	.	.	.	.	.	.	.	.	.	.	.	.	.	.	.	.	.
16F|>\JJ	.	.	16F|</JJ	.	16f|</JJ	.	16f|</JJ	.	.	.	.	.	.	.	.	.	.	.	.	.	.	.	.	.
4E-|>\	.	.	4E-/	.	4e-/	.	4e-|</	.	2r	.	2r	.	2r	.	2r	.	4E-/	.	4e-\	.	4b-\	.	4ee-\	.
8r	.	.	4r	.	4r	.	4r	.	.	.	.	.	.	.	.	.	4r	.	4r	.	4r	.	4r	.
8BB-/	.	.	.	.	.	.	.	.	.	.	.	.	.	.	.	.	.	.	.	.	.	.	.	.
=10	=10	=10	=10	=10	=10	=10	=10	=10	=10	=10	=10	=10	=10	=10	=10	=10	=10	=10	=10	=10	=10	=10	=10	=10
!	!	!	!LO:TX:a:t=1	!	!	!	!	!	!LO:TX:a:t=Solo	!	!	!	!	!	!LO:TX:a:i:t=Solo	!	!	!	!LO:TX:a:t=3	!	!	!	!	!
4E-|>\	.	.	1r	.	2r	.	2r	.	4E-\	Et	2r	.	2r	.	2r	.	0r	.	0r	.	2r	.	2r	.
8.G|>\L	.	.	.	.	.	.	.	.	8.G\	i-	.	.	.	.	.	.	.	.	.	.	.	.	.	.
16E-|>\Jk	.	.	.	.	.	.	.	.	16E-\	-te-	.	.	.	.	.	.	.	.	.	.	.	.	.	.
!LO:TX:t=P:problem=mixed beam	!	!	!	!	!	!	!	!	!	!	!	!	!	!	!	!	!	!	!	!	!	!	!	!
8B-|>\L	.	.	.	.	4r	.	4r	.	4B-\	-rum	4r	.	4r	.	4r	.	.	.	.	.	4r	.	8r	.
8BB-|</J	.	.	.	.	.	.	.	.	.	.	.	.	.	.	.	.	.	.	.	.	.	.	4r	.
4r	.	.	.	.	8r	.	8r	.	4r	.	8r	.	8r	.	8r	.	.	.	.	.	8r	.	.	.
!	!	!	!	!	!	!LO:DY:b	!	!LO:DY:b	!	!	!	!	!	!	!	!	!	!	!	!	!LO:TX:a:t=Solo	!	!	!
.	.	.	.	.	8e-/	p	8g/	p	.	.	8B-\	ven-	8e-\	ven-	8gg\	ven-	.	.	.	.	8ee-\	.	8gg\	.
!	!	!	!	!	!LO:LB:g=original	!	!LO:LB:g=original	!	!	!	!	!	!	!	!	!	!	!	!	!	!	!	!	!
=11	=11	=11	=11	=11	=11	=11	=11	=11	=11	=11	=11	=11	=11	=11	=11	=11	=11	=11	=11	=11	=11	=11	=11	=11
!LO:TX:b:t=pedal&colon;	!	!	!	!	!	!	!	!LO:DY:b:rj	!	!	!	!	!	!	!	!	!	!	!	!	!	!	!LO:TX:a:t=Solo	!
2B-\	.	.	2B-/	.	(8e-/L	.	(8g/L	p	1r	.	4B-\	-tu-	8e-\L	-tu-	8gg\L	-tu-	.	.	.	.	8ee-\L	.	8gg\L	p
.	.	.	.	.	8d/)	.	8f/)	.	.	.	.	.	8d\J	.	8ff\	.	.	.	.	.	8dd\	.	8ff\	.
.	.	.	.	.	(8f/	.	(8a-/	.	.	.	4B-\	-rus	8f\L	-rus	8aa-\	-rus	.	.	.	.	8ff\	.	8aa-\	.
.	.	.	.	.	8e-/J)	.	8g/J)	.	.	.	.	.	8e-\J	.	8gg\J	.	.	.	.	.	8ee-\J	.	8gg\J	.
!	!	!	!	!LO:DY:b	!	!	!	!	!	!	!	!	!	!	!	!	!	!	!	!	!	!	!	!
4BB-/	.	.	4B-/	p	4d/	.	(8f/L	.	.	.	4B-\	eſt	4d\	eſt	4ff\	eſt	.	.	.	.	4dd\	.	4ff\	.
.	.	.	.	.	.	.	8b-/)	.	.	.	.	.	.	.	.	.	.	.	.	.	.	.	.	.
!LO:TX:a:t=Tutti	!	!	!	!	!	!	!	!	!	!	!	!	!	!	!	!	!	!	!	!	!	!	!	!
4r	.	.	4r	.	4r	.	8b-|</	.	.	.	4r	.	4r	.	4r	.	.	.	.	.	4r	.	4r	.
.	.	.	.	.	.	.	8b-|</J	.	.	.	.	.	.	.	.	.	.	.	.	.	.	.	.	.
!	!	!	!LO:LB:g=original	!	!	!	!	!	!LO:LB:g=original	!	!	!	!	!	!LO:LB:g=original	!	!	!	!	!	!LO:LB:g=original	!	!	!
=12	=12	=12	=12	=12	=12	=12	=12	=12	=12	=12	=12	=12	=12	=12	=12	=12	=12	=12	=12	=12	=12	=12	=12	=12
!	!	!	!LO:TX:a:t=1	!	!	!	!	!	!	!	!	!	!	!	!	!	!	!	!	!	!	!	!	!
4B-|>\	.	.	1r	.	2r	.	4b-\	.	8B-\L	cum	2r	.	2r	.	2r	.	1r	.	1r	.	2r	.	2r	.
.	.	.	.	.	.	.	.	.	16An\L	.	.	.	.	.	.	.	.	.	.	.	.	.	.	.
.	.	.	.	.	.	.	.	.	16B-\JJ	.	.	.	.	.	.	.	.	.	.	.	.	.	.	.
8F|>\L	.	.	.	.	.	.	4r	.	8F\	glo-	.	.	.	.	.	.	.	.	.	.	.	.	.	.
8D|>\J	.	.	.	.	.	.	.	.	8D\	-ri-	.	.	.	.	.	.	.	.	.	.	.	.	.	.
4BB-|</	.	.	.	.	4r	.	4r	.	4BB-/	-a	4r	.	4r	.	4r	.	.	.	.	.	4r	.	4r	.
8r	.	.	.	.	8r	.	8r	.	8r	.	8r	.	8r	.	8r	.	.	.	.	.	8r	.	8r	.
!LO:TX:a:t=Solo	!	!	!	!	!	!	!	!	!	!	!	!	!	!	!	!	!	!	!	!	!	!	!	!
8D\	.	.	.	.	8f/	.	8a-/	.	8A\	cum	8F/	cum	8dd\	cum	8aa-\	cum	.	.	.	.	8ff\	.	8aa-\	.
=13	=13	=13	=13	=13	=13	=13	=13	=13	=13	=13	=13	=13	=13	=13	=13	=13	=13	=13	=13	=13	=13	=13	=13	=13
!	!	!	!LO:TX:b:t=P:problem=♭ below	!	!	!	!	!	!	!	!	!	!	!	!	!	!	!	!	!	!	!	!	!
4E-\	.	.	2B-X/	.	8e-|</L	.	8g/L	.	4B-\	glo-	4B-\	glo-	4ee-\	glo-	4gg\	glo-	4e-\	.	4g\	.	4ee-\	.	4gg\	.
.	.	.	.	.	8e-|</	.	8g/	.	.	.	.	.	.	.	.	.	.	.	.	.	.	.	.	.
4BB-/	.	.	.	.	8d/	.	8f/	.	4BB-/	-ri-	4B-\	-ri-	4dd\	-ri-	4ff\	-ri-	4B-/	.	4f\	.	4dd\	.	4ff\	.
.	.	.	.	.	8d/J	.	8f/J	.	.	.	.	.	.	.	.	.	.	.	.	.	.	.	.	.
!	!	!	!LO:TX:b:t=P:problem=♭ below	!	!	!	!	!	!	!	!	!	!	!	!	!	!	!	!	!	!	!	!	!
4EE-/	.	.	4B-X/	.	4B-/	.	16e-|</LL	.	4E-\	-a	4G/	-a,	4b-\	-a	4ee-\	-a	4G/	.	4e-\	.	4b-\	.	4ee-\	.
.	.	.	.	.	.	.	16e-|</	.	.	.	.	.	.	.	.	.	.	.	.	.	.	.	.	.
.	.	.	.	.	.	.	16f|</	.	.	.	.	.	.	.	.	.	.	.	.	.	.	.	.	.
.	.	.	.	.	.	.	16g|</JJ	.	.	.	.	.	.	.	.	.	.	.	.	.	.	.	.	.
4r	.	.	4r	.	4r	.	16a-|</LL	.	4r	.	4r	.	4r	.	4r	.	4r	.	4r	.	4r	.	4r	.
.	.	.	.	.	.	.	16b-|</	.	.	.	.	.	.	.	.	.	.	.	.	.	.	.	.	.
.	.	.	.	.	.	.	16cc|</	.	.	.	.	.	.	.	.	.	.	.	.	.	.	.	.	.
.	.	.	.	.	.	.	16dd|</JJ	.	.	.	.	.	.	.	.	.	.	.	.	.	.	.	.	.
!	!	!	!	!	!	!	!	!	!	!	!LO:LB:g=original	!	!LO:LB:g=original	!	!	!	!	!	!	!	!	!	!	!
=14	=14	=14	=14	=14	=14	=14	=14	=14	=14	=14	=14	=14	=14	=14	=14	=14	=14	=14	=14	=14	=14	=14	=14	=14
*tremolo	*	*	*tremolo	*	*tremolo	*	*	*	*	*	*	*	*	*	*	*	*	*	*	*	*	*	*	*
!LO:TX:a:t=Tutti	!	!	!	!	!	!LO:DY:b:rj	!	!LO:DY:b	!	!	!	!	!	!	!	!	!	!LO:DY:b:rj	!	!	!	!	!	!
8E-\L	.	.	8B-/L	.	16B-/ 16gLL	f	16ee-|>\LL	f	4E-\	ju-	4G/	ju-	4b-\	Ju-	4ee-\	Ju-	1G	f	1e-	.	1b-	f	1ee-	f
.	.	.	.	.	16B-/ 16g	.	(16b-\	.	.	.	.	.	.	.	.	.	.	.	.	.	.	.	.	.
8E-\	.	.	8B-/	.	16B-/ 16g	.	16an\	.	.	.	.	.	.	.	.	.	.	.	.	.	.	.	.	.
.	.	.	.	.	16B-/ 16g	.	16b-\JJ)	.	.	.	.	.	.	.	.	.	.	.	.	.	.	.	.	.
8E-\	.	.	8B-/	.	16B-/ 16g	.	16g|</LL	.	4E-\	-di-	4G/	-di-	4b-\	-di-	4ee-\	-di-	.	.	.	.	.	.	.	.
.	.	.	.	.	16B-/ 16g	.	16b-|</	.	.	.	.	.	.	.	.	.	.	.	.	.	.	.	.	.
8E-\J	.	.	8B-/J	.	16B-/ 16g	.	16e-|</	.	.	.	.	.	.	.	.	.	.	.	.	.	.	.	.	.
.	.	.	.	.	16B-/ 16gJJ	.	16g|</JJ	.	.	.	.	.	.	.	.	.	.	.	.	.	.	.	.	.
!	!	!	!	!LO:DY:b	!	!	!	!	!	!	!	!	!	!	!	!	!	!	!	!	!	!	!	!
8E-\L	.	.	8B-/L	f	16B-/ 16gLL	.	(16B-/LL	.	4E-\	-ca-	4G/	-ca-	4b-\	-ca-	4ee-\	-ca-	.	.	.	.	.	.	.	.
.	.	.	.	.	16B-/ 16g	.	16e-/)	.	.	.	.	.	.	.	.	.	.	.	.	.	.	.	.	.
8E-\	.	.	8B-/	.	16B-/ 16g	.	(16g/	.	.	.	.	.	.	.	.	.	.	.	.	.	.	.	.	.
.	.	.	.	.	16B-/ 16g	.	16e-/JJ)	.	.	.	.	.	.	.	.	.	.	.	.	.	.	.	.	.
8E-\	.	.	8B-/	.	16B-/ 16g	.	16b-|</LL	.	4E-\	-re	4G/	-re	4b-\	-re	4ee-\	-re	.	.	.	.	.	.	.	.
.	.	.	.	.	16B-/ 16g	.	16g|</	.	.	.	.	.	.	.	.	.	.	.	.	.	.	.	.	.
8E-\J	.	.	8B-/J	.	16B-/ 16g	.	16ee-|</	.	.	.	.	.	.	.	.	.	.	.	.	.	.	.	.	.
.	.	.	.	.	16B-/ 16gJJ	.	16b-|</JJ	.	.	.	.	.	.	.	.	.	.	.	.	.	.	.	.	.
!	!	!	!	!	!	!	!	!	!	!	!	!	!	!	!	!	!	!	!	!	!	!	!LO:LB:g=original	!
=15	=15	=15	=15	=15	=15	=15	=15	=15	=15	=15	=15	=15	=15	=15	=15	=15	=15	=15	=15	=15	=15	=15	=15	=15
8B-\L	.	.	8F/L	.	16B-/ 16fLL	.	16dd|>\LL	.	2B-\	vi-	2c\	vi-	2f\	vi-	2dd\	vi-	1B-	.	1B-	.	2b-\	.	2dd\	.
.	.	.	.	.	16B-/ 16f	.	(16b-\	.	.	.	.	.	.	.	.	.	.	.	.	.	.	.	.	.
8B-\	.	.	8F/	.	16B-/ 16f	.	16an\	.	.	.	.	.	.	.	.	.	.	.	.	.	.	.	.	.
.	.	.	.	.	16B-/ 16f	.	16b-\JJ)	.	.	.	.	.	.	.	.	.	.	.	.	.	.	.	.	.
8B-\	.	.	8F/	.	16B-/ 16f	.	16f|</LL	.	.	.	.	.	.	.	.	.	.	.	.	.	.	.	.	.
.	.	.	.	.	16B-/ 16f	.	16b-|</	.	.	.	.	.	.	.	.	.	.	.	.	.	.	.	.	.
8B-\J	.	.	8F/J	.	16B-/ 16f	.	16d|</	.	.	.	.	.	.	.	.	.	.	.	.	.	.	.	.	.
.	.	.	.	.	16B-/ 16fJJ	.	16f|</JJ	.	.	.	.	.	.	.	.	.	.	.	.	.	.	.	.	.
8d\L	6 5	.	8F/L	.	16B-/ 16fLL	.	16B-|</LL	.	4B-\	-vos	4B-\	-vos	4f\	-vos	4dd\	-vos	.	.	.	.	2ee-\	.	2ff\	.
.	.	.	.	.	16B-/ 16f	.	(16b-/	.	.	.	.	.	.	.	.	.	.	.	.	.	.	.	.	.
8d\	.	.	8F/	.	16B-/ 16f	.	16dd/	.	.	.	.	.	.	.	.	.	.	.	.	.	.	.	.	.
.	.	.	.	.	16B-/ 16f	.	16b-/JJ)	.	.	.	.	.	.	.	.	.	.	.	.	.	.	.	.	.
8d\	.	.	8F/	.	16B-/ 16f	.	16ff|>\LL	.	4d\	et	4B-\	et	4b-\	et	4ff\	et	.	.	.	.	.	.	.	.
.	.	.	.	.	16B-/ 16f	.	16b-|>\	.	.	.	.	.	.	.	.	.	.	.	.	.	.	.	.	.
8d\J	.	.	8F/J	.	16B-/ 16f	.	16aa-|>\	.	.	.	.	.	.	.	.	.	.	.	.	.	.	.	.	.
.	.	.	.	.	16B-/ 16fJJ	.	16b-|>\JJ	.	.	.	.	.	.	.	.	.	.	.	.	.	.	.	.	.
!	!	!	!	!	!	!	!LO:PB:g=original	!	!	!	!	!	!	!	!	!	!	!	!	!	!	!	!	!
=16	=16	=16	=16	=16	=16	=16	=16	=16	=16	=16	=16	=16	=16	=16	=16	=16	=16	=16	=16	=16	=16	=16	=16	=16
8e-\L	3	.	8B-/L	.	16g/LL	.	16gg|>\LL	.	2e-\	mor-	2e-\	mor-	2b-\	mor-	2gg\	mor-	2G/	.	2e-\	.	2ee-\	.	2gg\	.
.	.	.	.	.	16g/	.	(16b-\	.	.	.	.	.	.	.	.	.	.	.	.	.	.	.	.	.
8e-\	.	.	8B-/	.	16g/	.	16an\	.	.	.	.	.	.	.	.	.	.	.	.	.	.	.	.	.
.	.	.	.	.	16g/	.	16b-\JJ)	.	.	.	.	.	.	.	.	.	.	.	.	.	.	.	.	.
8e-\	.	.	8B-/	.	16g/	.	16gg|>\LL	.	.	.	.	.	.	.	.	.	.	.	.	.	.	.	.	.
.	.	.	.	.	16g/	.	16b-|>\	.	.	.	.	.	.	.	.	.	.	.	.	.	.	.	.	.
8e-\J	.	.	8B-/J	.	16g/	.	16bb-|>\	.	.	.	.	.	.	.	.	.	.	.	.	.	.	.	.	.
.	.	.	.	.	16g/JJ	.	16b-|>\JJ	.	.	.	.	.	.	.	.	.	.	.	.	.	.	.	.	.
!	!	!	!	!	!	!	!	!	!	!	!	!	!	!	!	!	!	!	!	!	!LO:SIC:v:s=2dd\	!	!	!
8d\L	6	.	8B-/L	.	16f/LL	.	16ff|>\LL	.	2d\	-tu-	2d\	-tu-	2b-\	-tu-	2ff\	-tu-	2B-/	.	2f\	.	2cc\	.	2ff\	.
.	.	.	.	.	16f/	.	(16b-\	.	.	.	.	.	.	.	.	.	.	.	.	.	.	.	.	.
8d\	.	.	8B-/	.	16f/	.	16an\	.	.	.	.	.	.	.	.	.	.	.	.	.	.	.	.	.
.	.	.	.	.	16f/	.	16b-\JJ)	.	.	.	.	.	.	.	.	.	.	.	.	.	.	.	.	.
8d\	.	.	8B-/	.	16f/	.	16ff|>\LL	.	.	.	.	.	.	.	.	.	.	.	.	.	.	.	.	.
.	.	.	.	.	16f/	.	16b-|>\	.	.	.	.	.	.	.	.	.	.	.	.	.	.	.	.	.
8d\J	.	.	8B-/J	.	16f/	.	16bb-|>\	.	.	.	.	.	.	.	.	.	.	.	.	.	.	.	.	.
.	.	.	.	.	16f/JJ	.	16b-|>\JJ	.	.	.	.	.	.	.	.	.	.	.	.	.	.	.	.	.
=17	=17	=17	=17	=17	=17	=17	=17	=17	=17	=17	=17	=17	=17	=17	=17	=17	=17	=17	=17	=17	=17	=17	=17	=17
8c\L	6\	.	8An/L	.	16e-/LL	.	16ee-|>\LL	.	4c\	-os	4e-\	-os	4an\	-os	4ee-\	-os	1f	.	1f	.	1cc	.	1ee-	.
.	.	.	.	.	16e-/	.	16cc|>\	.	.	.	.	.	.	.	.	.	.	.	.	.	.	.	.	.
8c\	.	.	8An/	.	16e-/	.	16dd|>\	.	.	.	.	.	.	.	.	.	.	.	.	.	.	.	.	.
.	.	.	.	.	16e-/	.	16ee-|>\JJ	.	.	.	.	.	.	.	.	.	.	.	.	.	.	.	.	.
8c\	.	.	8An/	.	16e-/	.	16ff|>\LL	.	4r	.	4r	.	4r	.	4r	.	.	.	.	.	.	.	.	.
.	.	.	.	.	16e-/	.	16gg|>\	.	.	.	.	.	.	.	.	.	.	.	.	.	.	.	.	.
8c\J	.	.	8An/J	.	16e-/	.	16aan|>\	.	.	.	.	.	.	.	.	.	.	.	.	.	.	.	.	.
.	.	.	.	.	16e-/JJ	.	16bb-|>\JJ	.	.	.	.	.	.	.	.	.	.	.	.	.	.	.	.	.
!LO:LB:g=original	!	!	!	!	!	!	!	!	!	!	!	!	!	!	!	!	!	!	!	!	!	!	!	!
=-	=-	=-	=-	=-	=-	=-	=-	=-	=-	=-	=-	=-	=-	=-	=-	=-	=-	=-	=-	=-	=-	=-	=-	=-
8An\L	6	.	8F/L	.	16c/LL	.	16ccc\LL	.	2r	.	2r	.	2r	.	2r	.	.	.	.	.	.	.	.	.
.	.	.	.	.	16c/	.	16bb-\	.	.	.	.	.	.	.	.	.	.	.	.	.	.	.	.	.
8An\	.	.	8F/	.	16c/	.	16aa\	.	.	.	.	.	.	.	.	.	.	.	.	.	.	.	.	.
.	.	.	.	.	16c/	.	16bb-\JJ	.	.	.	.	.	.	.	.	.	.	.	.	.	.	.	.	.
8An\	.	.	8F/	.	16c/	.	16ccc\LL	.	.	.	.	.	.	.	.	.	.	.	.	.	.	.	.	.
.	.	.	.	.	16c/	.	16aa\	.	.	.	.	.	.	.	.	.	.	.	.	.	.	.	.	.
8An\J	.	.	8F/J	.	16c/	.	16ff\	.	.	.	.	.	.	.	.	.	.	.	.	.	.	.	.	.
.	.	.	.	.	16c/JJ	.	16ee-\JJ	.	.	.	.	.	.	.	.	.	.	.	.	.	.	.	.	.
*Xtremolo	*	*	*Xtremolo	*	*	*	*	*	*	*	*	*	*	*	*	*	*	*	*	*	*	*	*	*
!	!	!	!	!	!	!	!	!	!LO:LB:g=original	!	!	!	!	!	!LO:LB:g=original	!	!	!	!	!	!	!	!	!
=18	=18	=18	=18	=18	=18	=18	=18	=18	=18	=18	=18	=18	=18	=18	=18	=18	=18	=18	=18	=18	=18	=18	=18	=18
4B-\	5 3	.	4f\	.	16f/LL	.	16dd|>\LL	.	4B-\	Cu-	4f\	Cu-	4f\	Cu-	4ff\	Cu-	2B-/	.	2f\	.	2dd\	.	2ff\	.
.	.	.	.	.	16f/	.	(16ff\	.	.	.	.	.	.	.	.	.	.	.	.	.	.	.	.	.
.	.	.	.	.	16f/	.	16een\	.	.	.	.	.	.	.	.	.	.	.	.	.	.	.	.	.
.	.	.	.	.	16f/	.	16ff\JJ)	.	.	.	.	.	.	.	.	.	.	.	.	.	.	.	.	.
8r	.	.	8r	.	16f/	.	16dd|>\LL	.	4B-\	-jus	4f\	-jus	4f\	-jus	4ff\	-jus	.	.	.	.	.	.	.	.
.	.	.	.	.	16f/	.	16ff|>\	.	.	.	.	.	.	.	.	.	.	.	.	.	.	.	.	.
8B-\	3	.	8d\	.	16f/	.	16b-|>\	.	.	.	.	.	.	.	.	.	.	.	.	.	.	.	.	.
.	.	.	.	.	16f/JJ	.	16ff|>\JJ	.	.	.	.	.	.	.	.	.	.	.	.	.	.	.	.	.
8An\L	3	.	8c\L	.	16f/LL	.	16cc|>\LL	.	8An\L	Re-	8e-\L	Re-	4f\	re-	8cc\L	re-	2r	.	2r	.	8anX\L	.	(8cc\L	.
.	.	.	.	.	16f/	.	16ff|>\	.	.	.	.	.	.	.	.	.	.	.	.	.	.	.	.	.
8B-\	3	.	8d'\	.	16f/	.	16dd|>\	.	8B-\J	.	8d\J	.	.	.	8dd\J	.	.	.	.	.	8b-\	.	8dd\	.
.	.	.	.	.	16f/	.	16ff|>\JJ	.	.	.	.	.	.	.	.	.	.	.	.	.	.	.	.	.
8c\	3	.	8e-'\	.	16f/	.	16ee-X|>\LL	.	8c\L	-gni	8e-\L	-gni	4f\	-gni	8ee-\L	-gni	.	.	.	.	8cc\	.	8ee-\)	.
.	.	.	.	.	16f/	.	16ff|>\	.	.	.	.	.	.	.	.	.	.	.	.	.	.	.	.	.
8A\J	3	.	8c'\J	.	16f/	.	16cc|>\	.	8A\J	.	8c\J	.	.	.	8cc\J	.	.	.	.	.	8a\J	.	8cc\J	.
.	.	.	.	.	16f/JJ	.	16ff|>\JJ	.	.	.	.	.	.	.	.	.	.	.	.	.	.	.	.	.
!	!	!	!LO:LB:g=original	!	!LO:LB:g=original	!	!	!	!	!	!	!	!	!	!	!	!LO:LB:g=original	!	!	!	!	!	!	!
=19	=19	=19	=19	=19	=19	=19	=19	=19	=19	=19	=19	=19	=19	=19	=19	=19	=19	=19	=19	=19	=19	=19	=19	=19
*	*	*	*	*	*	*	*	*	*	*ij	*	*ij	*	*ij	*	*	*	*	*	*	*	*	*	*
4B-\	3	.	4f\	.	16f/LL	.	16dd|>\LL	.	4B-\	Cu-	4f\	Cu-	4f\	Cu-	4ff\	cu-	2B-/	.	2f\	.	2cc\	.	2ff\	.
.	.	.	.	.	16f/	.	(16ff\	.	.	.	.	.	.	.	.	.	.	.	.	.	.	.	.	.
.	.	.	.	.	16f/	.	16een\	.	.	.	.	.	.	.	.	.	.	.	.	.	.	.	.	.
.	.	.	.	.	16f/	.	16ff\JJ)	.	.	.	.	.	.	.	.	.	.	.	.	.	.	.	.	.
8r	.	.	8r	.	16f/	.	16dd|>\LL	.	4B-\	-jus	4f\	-jus	4f\	-jus	4ff\	-jus	.	.	.	.	.	.	.	.
.	.	.	.	.	16f/	.	16ff|>\	.	.	.	.	.	.	.	.	.	.	.	.	.	.	.	.	.
8B-\	3	.	8d\	.	16f/	.	16b-|>\	.	.	.	.	.	.	.	.	.	.	.	.	.	.	.	.	.
.	.	.	.	.	16f/JJ	.	16ff|>\JJ	.	.	.	.	.	.	.	.	.	.	.	.	.	.	.	.	.
!	!	!	!	!	!	!	!LO:LB:g=original	!	!	!	!	!	!	!	!	!	!	!	!	!	!	!	!	!
=-	=-	=-	=-	=-	=-	=-	=-	=-	=-	=-	=-	=-	=-	=-	=-	=-	=-	=-	=-	=-	=-	=-	=-	=-
8An\L	3	.	8c|>\L	.	16f/LL	.	16cc|>\LL	.	8An\L	Re-	8e-\L	Re-	4f\	re-	8cc\L	re-	2r	.	2r	.	8anX\L	.	8cc\L	.
.	.	.	.	.	16f/	.	16ff|>\	.	.	.	.	.	.	.	.	.	.	.	.	.	.	.	.	.
8B-\	3	.	8d|>\	.	16f/	.	16dd|>\	.	8B-\J	.	8d\J	.	.	.	8dd\J	.	.	.	.	.	8b-\	.	8dd\	.
.	.	.	.	.	16f/	.	16ff|>\JJ	.	.	.	.	.	.	.	.	.	.	.	.	.	.	.	.	.
8c\	3	.	8e-|>\	.	16f/	.	16ee-X|>\LL	.	8c\L	-gni	8e-\L	-gni	4f\	-gni	8ee-\L	-gni	.	.	.	.	8cc\	.	8ee-\	.
*	*	*	*	*	*	*	*	*	*	*Xij	*	*Xij	*	*Xij	*	*	*	*	*	*	*	*	*	*
.	.	.	.	.	16f/	.	16ff|>\	.	.	.	.	.	.	.	.	.	.	.	.	.	.	.	.	.
8A\J	3	.	8c'\J	.	16f/	.	16cc|>\	.	8A\J	.	8c\J	.	.	.	8cc\J	.	.	.	.	.	8a\J	.	8cc\J	.
.	.	.	.	.	16f/JJ	.	16ff|>\JJ	.	.	.	.	.	.	.	.	.	.	.	.	.	.	.	.	.
!	!	!	!	!	!	!	!	!	!	!	!	!	!LO:LB:g=original	!	!	!	!	!	!	!	!LO:LB:g=original	!	!	!
=20	=20	=20	=20	=20	=20	=20	=20	=20	=20	=20	=20	=20	=20	=20	=20	=20	=20	=20	=20	=20	=20	=20	=20	=20
*tremolo	*	*	*tremolo	*	*	*	*	*	*	*	*	*	*	*	*	*	*	*	*	*	*	*	*	*
8B-\L	3	.	8d\L	.	16f/LL	.	(16dd\LL	.	4B-\	non	4d\	n(on)	4b-\	non	4dd\	non	2B-/	.	2f\	.	2dd\	.	2ff\	.
.	.	.	.	.	16f/	.	16bb-\)	.	.	.	.	.	.	.	.	.	.	.	.	.	.	.	.	.
8B-\	.	.	8d\	.	16f/	.	16bb-|>\	.	.	.	.	.	.	.	.	.	.	.	.	.	.	.	.	.
.	.	.	.	.	16f/	.	16bb-|>\JJ	.	.	.	.	.	.	.	.	.	.	.	.	.	.	.	.	.
8B-\	.	.	8d\	.	16f/	.	(16bb-\LL	.	8B-\	e-	8d\	e-	8b-\	e-	8ff\	e-	.	.	.	.	.	.	.	.
.	.	.	.	.	16f/	.	16aan\)	.	.	.	.	.	.	.	.	.	.	.	.	.	.	.	.	.
8B-\J	.	.	8d\J	.	16f/	.	16gg|>\	.	8B-\	-rit	8d\	-rit	8b-\	-rit	8ff\	-rit	.	.	.	.	.	.	.	.
.	.	.	.	.	16f/JJ	.	16ff|>\JJ	.	.	.	.	.	.	.	.	.	.	.	.	.	.	.	.	.
!	!	!	!	!	!	!	!	!	!	!	!LO:LB:g=original	!	!	!	!	!	!	!	!	!	!	!	!	!
=-	=-	=-	=-	=-	=-	=-	=-	=-	=-	=-	=-	=-	=-	=-	=-	=-	=-	=-	=-	=-	=-	=-	=-	=-
*	*	*	*	*	*	*	*	*	*	*	*	*	*	*	*	*	*2\right	*	*	*	*	*	*	*
8E-\L	5 3	.	8e-\L	.	16g/LL	.	16gg\LL	.	4E-\	fi-	4e-\	fi-	4b-\	fi-	4gg\	fi-	2e-\	.	2g\	.	2ee-\	.	2gg\	.
.	.	.	.	.	16g/	.	16b-\	.	.	.	.	.	.	.	.	.	.	.	.	.	.	.	.	.
8E-\	.	.	8e-\	.	16g/	.	16ee-\	.	.	.	.	.	.	.	.	.	.	.	.	.	.	.	.	.
.	.	.	.	.	16g/	.	16gg\JJ	.	.	.	.	.	.	.	.	.	.	.	.	.	.	.	.	.
8E-\	.	.	8e-\	.	16g/	.	16bb-\LL	.	4E-\	-nis	4e-\	-nis	4b-\	-nis	4gg\	-nis	.	.	.	.	.	.	.	.
.	.	.	.	.	16g/	.	16gg\	.	.	.	.	.	.	.	.	.	.	.	.	.	.	.	.	.
8E-\J	.	.	8e-\J	.	16g/	.	16ff\	.	.	.	.	.	.	.	.	.	.	.	.	.	.	.	.	.
.	.	.	.	.	16g/JJ	.	16ee-\JJ	.	.	.	.	.	.	.	.	.	.	.	.	.	.	.	.	.
*	*	*	*	*	*Xtremolo	*	*	*	*	*	*	*	*	*	*	*	*	*	*	*	*	*	*	*
!	!	!	!	!	!	!	!	!	!	!	!	!	!	!	!	!	!	!	!LO:LB:g=original	!	!	!	!	!
=21	=21	=21	=21	=21	=21	=21	=21	=21	=21	=21	=21	=21	=21	=21	=21	=21	=21	=21	=21	=21	=21	=21	=21	=21
8F\L	6 4	.	8f\L	.	(16b-\LL	.	(16dd\LL	.	4F\	n(on)	4d\	n(on)	4b-\	non	4ff\	non	2B-/	.	2f\	.	2dd\	.	2bb-\	.
.	.	.	.	.	16dd\)	.	16bb-\)	.	.	.	.	.	.	.	.	.	.	.	.	.	.	.	.	.
8F\	.	.	8f\	.	16dd|>\	.	16b-|>\	.	.	.	.	.	.	.	.	.	.	.	.	.	.	.	.	.
.	.	.	.	.	16dd'\JJ	.	16bb-\JJ	.	.	.	.	.	.	.	.	.	.	.	.	.	.	.	.	.
8F\	.	.	8f\	.	(16b-\LL	.	(16dd\LL	.	8F\	e-	8d\	e-	8b-\	e-	8dd\	e-	.	.	.	.	.	.	.	.
.	.	.	.	.	16dd\)	.	16bb-\)	.	.	.	.	.	.	.	.	.	.	.	.	.	.	.	.	.
8F\J	.	.	8f\J	.	16dd|>\	.	16b-|>\	.	8F\	-rit	8d\	-rit	8b-\	-rit	8dd\	-rit	.	.	.	.	.	.	.	.
.	.	.	.	.	16dd|>\JJ	.	16bb-|>\JJ	.	.	.	.	.	.	.	.	.	.	.	.	.	.	.	.	.
!	!	!	!	!	!LO:SIC:v:s=(16an\LL	!	!	!	!	!	!	!	!	!	!	!	!	!	!	!	!	!	!	!
8FF/L	5 n	.	8F/L	.	(16a-\LL	.	(16cc\LL	.	2F\	fi-	2e-\	fi-	2an\	fi-	2cc\	fi-	2f\	.	2f\	.	2cc\	.	2aa\	.
.	.	.	.	.	16cc\)	.	16ff\)	.	.	.	.	.	.	.	.	.	.	.	.	.	.	.	.	.
8FF/	.	.	8F/	.	16cc|>\	.	16aan|>\	.	.	.	.	.	.	.	.	.	.	.	.	.	.	.	.	.
.	.	.	.	.	16cc|>\JJ	.	16ff|>\JJ	.	.	.	.	.	.	.	.	.	.	.	.	.	.	.	.	.
!	!	!	!	!	!LO:SIC:v:s=(16an\LL	!	!	!	!	!	!	!	!	!	!	!	!	!	!	!	!	!	!	!
8FF/	.	.	8F/	.	(16a-\LL	.	(16cc\LL	.	.	.	.	.	.	.	.	.	.	.	.	.	.	.	.	.
.	.	.	.	.	16cc\)	.	16ff\)	.	.	.	.	.	.	.	.	.	.	.	.	.	.	.	.	.
8FF/J	.	.	8F/J	.	16cc|>\	.	16aan|>\	.	.	.	.	.	.	.	.	.	.	.	.	.	.	.	.	.
.	.	.	.	.	16cc|>\JJ	.	16ff|>\JJ	.	.	.	.	.	.	.	.	.	.	.	.	.	.	.	.	.
*Xtremolo	*	*	*Xtremolo	*	*	*	*	*	*	*	*	*	*	*	*	*	*	*	*	*	*	*	*	*
!	!	!	!	!	!	!	!	!	!	!	!	!	!	!	!LO:LB:g=original	!	!	!	!	!	!	!	!	!
=22	=22	=22	=22	=22	=22	=22	=22	=22	=22	=22	=22	=22	=22	=22	=22	=22	=22	=22	=22	=22	=22	=22	=22	=22
4BB-/	.	.	4B-/	.	4dd\	.	4b-\ 4bb-	.	4BB-/	-nis.	4d\	-nis.	4f\	-nis.	4dd\	-nis.	4B-/	.	4b-\	.	4dd\	.	4bb-\	.
8r	.	.	8r	.	8r	.	8r	.	4r	.	4r	.	4r	.	4r	.	4r	.	4r	.	4r	.	4r	.
8B-|>\	.	.	8b-\	.	8b-\	.	8b-|</	.	.	.	.	.	.	.	.	.	.	.	.	.	.	.	.	.
!	!	!	!	!	!	!	!	!	!	!	!	!	!	!	!LO:TX:a:t=Solo	!	!	!	!	!	!	!	!	!
8F|>\L	.	.	8f|>\L	.	8f|</L	.	8f|</L	.	2r	.	2r	.	2r	.	2r	.	2r	.	2r	.	2r	.	2r	.
8E-|>\	.	.	8e-|>\	.	8e-|</	.	8e-|</	.	.	.	.	.	.	.	.	.	.	.	.	.	.	.	.	.
8D|>\	.	.	8d|>\	.	8d|</	.	8d|</	.	.	.	.	.	.	.	.	.	.	.	.	.	.	.	.	.
8C|>\J	.	.	8c|>\J	.	8c|</J	.	8c|</J	.	.	.	.	.	.	.	.	.	.	.	.	.	.	.	.	.
!	!	!	!	!	!	!	!	!	!LO:LB:g=original	!	!	!	!	!	!	!	!	!	!	!	!	!	!	!
=23	=23	=23	=23	=23	=23	=23	=23	=23	=23	=23	=23	=23	=23	=23	=23	=23	=23	=23	=23	=23	=23	=23	=23	=23
!	!	!	!	!	!	!	!	!	!	!	!	!	!LO:TX:a:t=Solo	!	!	!	!LO:TX:a:t=9	!	!	!	!	!	!LO:TX:a:t=Solo	!
4BB-/	.	.	4B-/	.	4B-|</	.	4B-/	.	00r	.	00r	.	4r	.	4r	.	00r	.	00r	.	4r	.	4r	.
!	!	!	!	!LO:DY:b	!	!	!	!LO:DY:b	!	!	!	!	!	!	!	!	!	!	!	!	!LO:TX:a:t=Solo	!	!	!
4r	.	.	4r	p	(4B-/	.	(4d/	p	.	.	.	.	(4b-\	Et	(4dd\	Et	.	.	.	.	4b-\	.	4dd\	p
!LO:TX:a:t=Solo	!	!	!	!	!	!	!	!	!	!	!	!	!	!	!	!	!	!	!	!	!	!	!	!
2r	.	.	2r	.	4c/)	.	4e-/	.	.	.	.	.	4cc\)	.	4ee-\)	.	.	.	.	.	4cc\	p	4ee-\	.
.	.	.	.	.	4d/	.	4f/)	.	.	.	.	.	4dd\	in	4ff\	in	.	.	.	.	4dd\	.	4ff\	.
!	!	!	!	!	!	!	!	!	!	!	!	!	!	!	!	!	!	!	!	!	!	!	!LO:LB:g=original	!
=24	=24	=24	=24	=24	=24	=24	=24	=24	=24	=24	=24	=24	=24	=24	=24	=24	=24	=24	=24	=24	=24	=24	=24	=24
!	!	!LO:DY:b:t=p.:rj	!	!	!	!	!	!	!	!	!	!	!	!	!	!	!	!	!	!	!	!	!	!
2E-\	.	p	2B-/	.	8e-/L	.	(8g/L	.	.	.	.	.	4.ee-\	Spi-	4.gg\	Spi-	.	.	.	.	2ee-\	.	2gg\	.
.	.	.	.	.	8B-/	.	8e-/)	.	.	.	.	.	.	.	.	.	.	.	.	.	.	.	.	.
.	.	.	.	.	8e-/	.	(8g/	.	.	.	.	.	.	.	.	.	.	.	.	.	.	.	.	.
.	.	.	.	.	8B-/J	.	8e-/J)	.	.	.	.	.	8ee-\	-ri-	8gg\	-ri-	.	.	.	.	.	.	.	.
!	!	!	!	!	!	!	!LO:LB:g=original	!	!	!	!	!	!	!	!	!	!	!	!	!	!	!	!	!
=-	=-	=-	=-	=-	=-	=-	=-	=-	=-	=-	=-	=-	=-	=-	=-	=-	=-	=-	=-	=-	=-	=-	=-	=-
4BB-/	.	.	4B-/	.	4d/	.	4f/	.	.	.	.	.	4dd\	-tum	4ff\	-tum	.	.	.	.	4dd\	.	4ff\	.
4r	.	.	4r	.	4r	.	4r	.	.	.	.	.	4r	.	4r	.	.	.	.	.	8dd\L	.	8bb-\L	.
.	.	.	.	.	.	.	.	.	.	.	.	.	.	.	.	.	.	.	.	.	8dd\J	.	8ff\J	.
!	!	!	!LO:LB:g=original	!	!LO:LB:g=original	!	!	!	!	!	!	!	!LO:LB:g=original	!	!	!	!	!	!	!	!	!	!	!
=25	=25	=25	=25	=25	=25	=25	=25	=25	=25	=25	=25	=25	=25	=25	=25	=25	=25	=25	=25	=25	=25	=25	=25	=25
4r	.	.	4f\	.	4r	.	4r	.	.	.	.	.	4r	.	4r	.	.	.	.	.	(8dd\L	.	8ff\L	.
.	.	.	.	.	.	.	.	.	.	.	.	.	.	.	.	.	.	.	.	.	8cc\J)	.	8ee-\J	.
4F\	.	.	4f\	.	8c/L	.	(8e-/L	.	.	.	.	.	2cc\	San-	2ee-\	San-	.	.	.	.	2cc\	.	2ee-\	.
.	.	.	.	.	8An/	.	8c/J)	.	.	.	.	.	.	.	.	.	.	.	.	.	.	.	.	.
4An\	.	.	4f\	.	8c/	.	(8e-/L	.	.	.	.	.	.	.	.	.	.	.	.	.	.	.	.	.
.	.	.	.	.	8A/J	.	8c/J)	.	.	.	.	.	.	.	.	.	.	.	.	.	.	.	.	.
4B-\	.	.	4f\	.	4B-/	.	4d/	.	.	.	.	.	4b-\	-ctum	4dd\	-ctum	.	.	.	.	4b-\	.	4dd\	.
!LO:LB:g=original	!	!	!	!	!	!	!	!	!	!	!	!	!	!	!	!	!	!	!	!	!	!	!	!
=26	=26	=26	=26	=26	=26	=26	=26	=26	=26	=26	=26	=26	=26	=26	=26	=26	=26	=26	=26	=26	=26	=26	=26	=26
2F\	5 3	.	4f\	.	4An/	.	4c/	.	.	.	.	.	8an\	Do-	8cc\	Do-	.	.	.	.	8anX\L	.	8cc\L	.
.	6 4	.	.	.	.	.	.	.	.	.	.	.	8b-\	-mi-	8dd\	-mi-	.	.	.	.	8b-\	.	8dd\	.
.	5 3	.	4f\	.	4r	.	4r	.	.	.	.	.	4a\	-num	4cc\	-num	.	.	.	.	8a\	.	8cc\	.
*	*	*	*	*	*	*	*	*	*	*	*	*	*	*	*	*	*	*	*	*	*custos:b	*	*	*
.	6 4	.	.	.	.	.	.	.	.	.	.	.	.	.	.	.	.	.	.	.	8b-\J	.	8dd\J	.
!	!	!	!	!	!	!	!	!	!	!	!	!	!	!	!	!	!	!	!	!	!LO:LB:g=original	!	!	!
=-	=-	=-	=-	=-	=-	=-	=-	=-	=-	=-	=-	=-	=-	=-	=-	=-	=-	=-	=-	=-	=-	=-	=-	=-
4FF/	5 n	.	4f\	.	2r	.	2r	.	.	.	.	.	2r	.	2r	.	.	.	.	.	4a\	.	4cc\	.
4r	.	.	4r	.	.	.	.	.	.	.	.	.	.	.	.	.	.	.	.	.	(8b-\L	.	8dd\L	.
.	.	.	.	.	.	.	.	.	.	.	.	.	.	.	.	.	.	.	.	.	8a\J)	.	8cc\J	.
=27	=27	=27	=27	=27	=27	=27	=27	=27	=27	=27	=27	=27	=27	=27	=27	=27	=27	=27	=27	=27	=27	=27	=27	=27
*	*	*	*tremolo	*	*	*	*	*	*	*	*	*	*	*	*	*	*	*	*	*	*	*	*	*
4F\	.	.	8f\L	.	(4An/	.	4c/	.	00r	.	00r	.	8an\	et	8cc\	et	00r	.	00r	.	4anX\	.	4cc\	.
.	.	.	8f\	.	.	.	.	.	.	.	.	.	8a\	vi-	8cc\	vi-	.	.	.	.	.	.	.	.
4r	.	.	8f\	.	4d/)	.	4f/	.	.	.	.	.	8dd\	-vi-	8ff\	-vi-	.	.	.	.	4r	.	4r	.
.	.	.	8f\J	.	.	.	.	.	.	.	.	.	8dd\	-fi-	8ff\	-fi-	.	.	.	.	.	.	.	.
!	!	!	!	!	!	!	!	!	!	!	!	!	!	!	!LO:LB:g=original	!	!	!	!	!	!	!	!	!
=-	=-	=-	=-	=-	=-	=-	=-	=-	=-	=-	=-	=-	=-	=-	=-	=-	=-	=-	=-	=-	=-	=-	=-	=
4An\	6 5	.	8f\L	.	4r	.	4e-/	.	.	.	.	.	4cc\	-can-	4ee-\	-can-	.	.	.	.	(4cc\	.	4ee-\	.
.	.	.	8f\	.	.	.	.	.	.	.	.	.	.	.	.	.	.	.	.	.	.	.	.	.
!	!	!	!	!	!	!	!	!	!	!	!	!	!	!	!LO:TX:a:t=d	!	!	!	!	!	!	!	!	!
4B-\	3	.	8f\	.	4B-|</	.	4d/	.	.	.	.	.	4b-\	-tem	4dd\	-tem	.	.	.	.	4b-\)	.	4dd\	.
.	.	.	8f\J	.	.	.	.	.	.	.	.	.	.	.	.	.	.	.	.	.	.	.	.	.
=28	=28	=28	=28	=28	=28	=28	=28	=28	=28	=28	=28	=28	=28	=28	=28	=28	=28	=28	=28	=28	=28	=28	=28	=28
*	*	*	*	*	*	*	*	*	*	*	*	*	*	*ij	*	*	*	*	*	*	*	*	*	*
!	!	!	!	!	!	!	!	!	!	!	!	!	!LO:SIC:v:s=8an\	!	!	!	!	!	!	!	!	!	!	!
4F\	.	.	8f\L	.	(4An/	.	4c/	.	.	.	.	.	8a-\	et	8cc\	et	.	.	.	.	4anX\	.	4cc\	.
!	!	!	!	!	!	!	!	!	!	!	!	!	!LO:SIC:v:s=8an\	!	!	!	!	!	!	!	!	!	!	!
.	.	.	8f\	.	.	.	.	.	.	.	.	.	8a-\	vi-	8cc\	vi-	.	.	.	.	.	.	.	.
4r	.	.	8f\	.	4d/)	.	4f/	.	.	.	.	.	8dd\	-vi-	8ff\	-vi-	.	.	.	.	4r	.	4r	.
.	.	.	8f\J	.	.	.	.	.	.	.	.	.	8dd\	-fi-	8ff\	-fi-	.	.	.	.	.	.	.	.
4An\	6 5	.	8f\L	.	2r	.	4r	.	.	.	.	.	(4cc\	-can-	(4ee-\	-can-	.	.	.	.	4cc\	.	4ee-\	.
.	.	.	8f\	.	.	.	.	.	.	.	.	.	.	.	.	.	.	.	.	.	.	.	.	.
4B-\	.	.	8f\	.	.	.	4dd\	.	.	.	.	.	4b-\)	.	4dd\)	.	.	.	.	.	4b-\	.	4dd\	.
.	.	.	8f\J	.	.	.	.	.	.	.	.	.	.	.	.	.	.	.	.	.	.	.	.	.
*	*	*	*Xtremolo	*	*	*	*	*	*	*	*	*	*	*	*	*	*	*	*	*	*	*	*	*
!	!	!	!	!	!	!	!	!	!	!	!	!	!LO:LB:g=original	!	!	!	!	!	!	!	!	!	!	!
=29	=29	=29	=29	=29	=29	=29	=29	=29	=29	=29	=29	=29	=29	=29	=29	=29	=29	=29	=29	=29	=29	=29	=29	=29
*	*	*	*	*	*	*	*2\right	*	*	*	*	*	*	*	*	*	*	*	*	*	*	*	*	*
!	!	!	!	!	!LO:TX:a:t=2	!	!LO:TX:a:t=dol&colon;	!	!	!	!	!	!	!	!	!	!	!	!	!	!LO:SIC:v:s=4an\	!	!	!
4F\	.	.	4f\	.	0r	.	(2cc\	.	.	.	.	.	4an\	-tem	4cc\	-tem,	.	.	.	.	4a-\	.	4cc\	.
*	*	*	*	*	*	*	*	*	*	*	*	*	*	*Xij	*	*	*	*	*	*	*	*	*	*
4r	.	.	4r	.	.	.	.	.	.	.	.	.	4r	.	4r	.	.	.	.	.	4r	.	4r	.
2r	.	.	2r	.	.	.	2cc#X\)	.	.	.	.	.	2r	.	2r	.	.	.	.	.	2r	.	2r	.
=30	=30	=30	=30	=30	=30	=30	=30	=30	=30	=30	=30	=30	=30	=30	=30	=30	=30	=30	=30	=30	=30	=30	=30	=30
!LO:TX:a:t=1	!	!	!	!	!	!	!	!	!	!	!	!	!	!	!	!	!	!	!	!	!	!	!LO:TX:a:t=2	!
1r	.	.	1r	.	.	.	(8dd\L	.	.	.	.	.	0r	.	0r	.	.	.	.	.	0r	.	0r	.
.	.	.	.	.	.	.	8ee-X\)	.	.	.	.	.	.	.	.	.	.	.	.	.	.	.	.	.
.	.	.	.	.	.	.	(8dd\	.	.	.	.	.	.	.	.	.	.	.	.	.	.	.	.	.
.	.	.	.	.	.	.	8ccn\J)	.	.	.	.	.	.	.	.	.	.	.	.	.	.	.	.	.
.	.	.	.	.	.	.	(8b-\L	.	.	.	.	.	.	.	.	.	.	.	.	.	.	.	.	.
.	.	.	.	.	.	.	8an\)	.	.	.	.	.	.	.	.	.	.	.	.	.	.	.	.	.
.	.	.	.	.	.	.	(8g\	.	.	.	.	.	.	.	.	.	.	.	.	.	.	.	.	.
.	.	.	.	.	.	.	8f#X\J)	.	.	.	.	.	.	.	.	.	.	.	.	.	.	.	.	.
=31	=31	=31	=31	=31	=31	=31	=31	=31	=31	=31	=31	=31	=31	=31	=31	=31	=31	=31	=31	=31	=31	=31	=31	=31
8G|>\L	.	.	8g|>\L	.	8g|</L	.	(8g/L	.	1r	.	1r	.	.	.	.	.	1r	.	1r	.	.	.	.	.
8D|>\	.	.	8d|>\	.	8d|</	.	8d/)	.	.	.	.	.	.	.	.	.	.	.	.	.	.	.	.	.
8D|>\	.	.	8d|>\	.	(8d/	.	(8d/	.	.	.	.	.	.	.	.	.	.	.	.	.	.	.	.	.
8E-|>\J	.	.	8e-\J	.	8e-/J)	.	8e-/J)	.	.	.	.	.	.	.	.	.	.	.	.	.	.	.	.	.
8D|>\L	.	.	8d|</L	.	(8d/L	.	(8d/L	.	.	.	.	.	.	.	.	.	.	.	.	.	.	.	.	.
8C|>\	.	.	8c/	.	8c/)	.	8c/)	.	.	.	.	.	.	.	.	.	.	.	.	.	.	.	.	.
8BB-|>\	.	.	8B-|</	.	(8B-/	.	(8B-/	.	.	.	.	.	.	.	.	.	.	.	.	.	.	.	.	.
!LO:SIC:v:s=8AAn|>\J	!	!	!	!	!	!	!	!	!	!	!	!	!	!	!	!	!	!	!	!	!	!	!	!
8AA-|>\J	.	.	8An/J	.	8An/J)	.	8An/J)	.	.	.	.	.	.	.	.	.	.	.	.	.	.	.	.	.
!	!	!	!LO:PB:g=original	!	!	!	!	!	!	!	!	!	!	!	!	!	!	!	!	!	!	!	!	!
=32	=32	=32	=32	=32	=32	=32	=32	=32	=32	=32	=32	=32	=32	=32	=32	=32	=32	=32	=32	=32	=32	=32	=32	=32
!LO:TX:t=P:problem=mixed beam	!	!	!	!	!	!	!	!	!	!	!	!	!	!	!	!	!	!	!	!	!	!	!	!
!LO:TX:a:t=Tutti	!	!	!	!LO:DY:b	!	!LO:DY:a	!	!LO:DY:a:t=f.	!	!	!	!	!	!	!	!	!	!	!	!	!	!	!	!
8GG/L	.	.	8G/L	f	16B-/LL	f	4.G/	f	4G\	Qui	4d\	Qui	4b-\	Qui	4gg\	Qui	1G	.	1g	.	[1dd	.	1gg	f
.	.	.	.	.	16d/	.	.	.	.	.	.	.	.	.	.	.	.	.	.	.	.	.	.	.
8G\	5_ 3_	.	8d/	.	16B-/	.	.	.	.	.	.	.	.	.	.	.	.	.	.	.	.	.	.	.
.	.	.	.	.	16d/JJ	.	.	.	.	.	.	.	.	.	.	.	.	.	.	.	.	.	.	.
8G\	x x	.	8d/	.	16B-/LL	.	.	.	4G\	ex	4d\	ex	4b-\	ex	4gg\	ex	.	.	.	.	.	.	.	.
.	.	.	.	.	16d/	.	.	.	.	.	.	.	.	.	.	.	.	.	.	.	.	.	.	.
8G\J	.	.	8d/J	.	16B-/	.	8g|</	.	.	.	.	.	.	.	.	.	.	.	.	.	.	.	.	.
.	.	.	.	.	16d/JJ	.	.	.	.	.	.	.	.	.	.	.	.	.	.	.	.	.	.	.
*tremolo	*	*	*tremolo	*	*tremolo	*	*	*	*	*	*	*	*	*	*	*	*	*	*	*	*	*	*	*
8G\L	.	.	8d\L	.	16B-/LL	.	(8b-/L	.	4G\	Pa-	4d\	Pa-	4b-\	Pa-	4gg\	Pa-	.	.	.	.	.	.	.	.
.	.	.	.	.	16d/	.	.	.	.	.	.	.	.	.	.	.	.	.	.	.	.	.	.	.
8G\	.	.	8d\	.	16B-/	.	8g/)	.	.	.	.	.	.	.	.	.	.	.	.	.	.	.	.	.
.	.	.	.	.	16d/	.	.	.	.	.	.	.	.	.	.	.	.	.	.	.	.	.	.	.
8G\	.	.	8d\	.	16B-/	.	(8dd/	.	4G\	-tre	4d\	-tre	4b-\	-tre	4gg\	-tre	.	.	.	.	.	.	.	.
.	.	.	.	.	16d/	.	.	.	.	.	.	.	.	.	.	.	.	.	.	.	.	.	.	.
8G\J	.	.	8d\J	.	16B-/	.	8b-/J)	.	.	.	.	.	.	.	.	.	.	.	.	.	.	.	.	.
.	.	.	.	.	16d/JJ	.	.	.	.	.	.	.	.	.	.	.	.	.	.	.	.	.	.	.
!	!	!	!	!	!LO:LB:g=original	!	!LO:LB:g=original	!	!	!	!	!	!	!	!	!	!	!	!	!	!	!	!	!
=33	=33	=33	=33	=33	=33	=33	=33	=33	=33	=33	=33	=33	=33	=33	=33	=33	=33	=33	=33	=33	=33	=33	=33	=33
8F#X\L	6	.	8d\L	.	16An/LL	.	(8an\L	.	2F#X\	Fi-	2d\	Fi-	2an\	Fi-	2ff#X\	Fi-	1r	.	1r	.	1dd]	.	1ff#X	.
.	.	.	.	.	16d/	.	.	.	.	.	.	.	.	.	.	.	.	.	.	.	.	.	.	.
!	!	!	!	!	!	!	!LO:SIC:v:s=8aan\)	!	!	!	!	!	!	!	!	!	!	!	!	!	!	!	!	!
8F#X\	.	.	8d\	.	16An/	.	8aa-\)	.	.	.	.	.	.	.	.	.	.	.	.	.	.	.	.	.
.	.	.	.	.	16d/	.	.	.	.	.	.	.	.	.	.	.	.	.	.	.	.	.	.	.
!	!	!	!	!	!	!	!LO:SIC:v:s=8aan|>\	!	!	!	!	!	!	!	!	!	!	!	!	!	!	!	!	!
8F#X\	.	.	8d\	.	16An/	.	8aa-|>\	.	.	.	.	.	.	.	.	.	.	.	.	.	.	.	.	.
.	.	.	.	.	16d/	.	.	.	.	.	.	.	.	.	.	.	.	.	.	.	.	.	.	.
!	!	!	!	!	!	!	!LO:SIC:v:s=8aan|>\J	!	!	!	!	!	!	!	!	!	!	!	!	!	!	!	!	!
8F#X\J	.	.	8d\J	.	16An/	.	8aa-|>\J	.	.	.	.	.	.	.	.	.	.	.	.	.	.	.	.	.
.	.	.	.	.	16d/JJ	.	.	.	.	.	.	.	.	.	.	.	.	.	.	.	.	.	.	.
!	!	!	!	!	!	!	!LO:SIC:v:s=(8aan\L	!	!	!	!	!	!	!	!	!	!	!	!	!	!	!	!	!
8D\L	#	.	8d\L	.	16A/LL	.	(8aa-\L	.	4D\	-li-	4d\	-li-	4a\	-li-	4ff#X\	-li-	.	.	.	.	.	.	.	.
.	.	.	.	.	16d/	.	.	.	.	.	.	.	.	.	.	.	.	.	.	.	.	.	.	.
8D\	.	.	8d\	.	16A/	.	8ff#X\)	.	.	.	.	.	.	.	.	.	.	.	.	.	.	.	.	.
.	.	.	.	.	16d/	.	.	.	.	.	.	.	.	.	.	.	.	.	.	.	.	.	.	.
8D\	.	.	8d\	.	16A/	.	8ff#|>\	.	4D\	-o-	4d\	-o-	4a\	-o-	4ff#\	-o-	.	.	.	.	.	.	.	.
.	.	.	.	.	16d/	.	.	.	.	.	.	.	.	.	.	.	.	.	.	.	.	.	.	.
8D\J	.	.	8d\J	.	16A/	.	8dd|>\J	.	.	.	.	.	.	.	.	.	.	.	.	.	.	.	.	.
.	.	.	.	.	16d/JJ	.	.	.	.	.	.	.	.	.	.	.	.	.	.	.	.	.	.	.
!	!	!	!	!	!	!	!	!	!	!	!	!	!	!	!LO:LB:g=original	!	!	!	!	!	!	!	!LO:LB:g=original	!
=34	=34	=34	=34	=34	=34	=34	=34	=34	=34	=34	=34	=34	=34	=34	=34	=34	=34	=34	=34	=34	=34	=34	=34	=34
8BB-/L	6	.	8d\L	.	16B-/LL	.	4.b-\ 4.gg	.	2.G\	-que	2.d\	-que	2.b-\	-que	2.gg\	-que	1G	.	1g	.	1ee-	.	1gg	.
.	.	.	.	.	16d/	.	.	.	.	.	.	.	.	.	.	.	.	.	.	.	.	.	.	.
8BB-/	.	.	8d\	.	16B-/	.	.	.	.	.	.	.	.	.	.	.	.	.	.	.	.	.	.	.
.	.	.	.	.	16d/	.	.	.	.	.	.	.	.	.	.	.	.	.	.	.	.	.	.	.
8BB-/	.	.	8d\	.	16B-/	.	.	.	.	.	.	.	.	.	.	.	.	.	.	.	.	.	.	.
.	.	.	.	.	16d/	.	.	.	.	.	.	.	.	.	.	.	.	.	.	.	.	.	.	.
8BB-/J	.	.	8d\J	.	16B-/	.	8g/	.	.	.	.	.	.	.	.	.	.	.	.	.	.	.	.	.
.	.	.	.	.	16d/JJ	.	.	.	.	.	.	.	.	.	.	.	.	.	.	.	.	.	.	.
8GG/L	.	.	8d\L	.	16B-/LL	.	8b-/L	.	.	.	.	.	.	.	.	.	.	.	.	.	.	.	.	.
.	.	.	.	.	16d/	.	.	.	.	.	.	.	.	.	.	.	.	.	.	.	.	.	.	.
8GG/	.	.	8d\	.	16B-/	.	8g/	.	.	.	.	.	.	.	.	.	.	.	.	.	.	.	.	.
.	.	.	.	.	16d/	.	.	.	.	.	.	.	.	.	.	.	.	.	.	.	.	.	.	.
8GG/	.	.	8d\	.	16B-/	.	8dd/	.	4G\	pro-	4d\	pro-	4b-\	pro-	4gg\	pro-	.	.	.	.	.	.	.	.
.	.	.	.	.	16d/	.	.	.	.	.	.	.	.	.	.	.	.	.	.	.	.	.	.	.
8GG/J	.	.	8d\J	.	16B-/	.	8b-/J	.	.	.	.	.	.	.	.	.	.	.	.	.	.	.	.	.
.	.	.	.	.	16d/JJ	.	.	.	.	.	.	.	.	.	.	.	.	.	.	.	.	.	.	.
=35	=35	=35	=35	=35	=35	=35	=35	=35	=35	=35	=35	=35	=35	=35	=35	=35	=35	=35	=35	=35	=35	=35	=35	=35
!	!	!	!	!	!LO:SIC:v:s=16An/LL	!	!	!	!	!	!	!	!	!	!	!	!	!	!	!	!	!	!	!
8F#X\L	6	.	8d\L	.	16A-/LL	.	(8an\L	.	4D\	-ce-	4d\	-ce-	4an\	-ce-	4ff#X\	-ce-	1r	.	1r	.	1dd	.	1ff#X	.
.	.	.	.	.	16d/	.	.	.	.	.	.	.	.	.	.	.	.	.	.	.	.	.	.	.
!	!	!	!	!	!LO:SIC:v:s=16An/	!	!LO:SIC:v:s=8aan\)	!	!	!	!	!	!	!	!	!	!	!	!	!	!	!	!	!
8F#X\	.	.	8d\	.	16A-/	.	8aa-\)	.	.	.	.	.	.	.	.	.	.	.	.	.	.	.	.	.
.	.	.	.	.	16d/	.	.	.	.	.	.	.	.	.	.	.	.	.	.	.	.	.	.	.
!	!	!	!	!	!LO:SIC:v:s=16An/	!	!LO:SIC:v:s=8aan|>\	!	!	!	!	!	!	!	!	!	!	!	!	!	!	!	!	!
8F#X\	.	.	8d\	.	16A-/	.	8aa-|>\	.	4D\	-dit	4d\	-dit	4a\	-dit	4ff#\	-dit	.	.	.	.	.	.	.	.
.	.	.	.	.	16d/	.	.	.	.	.	.	.	.	.	.	.	.	.	.	.	.	.	.	.
!	!	!	!	!	!LO:SIC:v:s=16An/	!	!LO:SIC:v:s=8aan|>\J	!	!	!	!	!	!	!	!	!	!	!	!	!	!	!	!	!
8F#X\J	.	.	8d\J	.	16A-/	.	8aa-|>\J	.	.	.	.	.	.	.	.	.	.	.	.	.	.	.	.	.
.	.	.	.	.	16d/JJ	.	.	.	.	.	.	.	.	.	.	.	.	.	.	.	.	.	.	.
!	!	!	!	!	!	!	!	!	!	!	!LO:LB:g=original	!	!	!	!	!	!	!	!	!	!	!	!	!
=-	=-	=-	=-	=-	=-	=-	=-	=-	=-	=-	=-	=-	=-	=-	=-	=-	=-	=-	=-	=-	=-	=-	=-	=
!	!	!	!	!	!LO:SIC:v:s=16An/LL	!	!LO:SIC:v:s=(8aan\L	!	!	!	!	!	!	!	!	!	!	!	!	!	!	!	!	!
8D\L	#	.	8d\L	.	16A-/LL	.	(8aa-\L	.	4D\	qui	4d\	qui	4a\	qui	4ff#\	qui	.	.	.	.	.	.	.	.
.	.	.	.	.	16d/	.	.	.	.	.	.	.	.	.	.	.	.	.	.	.	.	.	.	.
!	!	!	!	!	!LO:SIC:v:s=16An/	!	!	!	!	!	!	!	!	!	!	!	!	!	!	!	!	!	!	!
8D\	.	.	8d\	.	16A-/	.	8ff#X\)	.	.	.	.	.	.	.	.	.	.	.	.	.	.	.	.	.
.	.	.	.	.	16d/	.	.	.	.	.	.	.	.	.	.	.	.	.	.	.	.	.	.	.
!	!	!	!	!	!LO:SIC:v:s=16An/	!	!	!	!	!	!	!	!	!	!	!	!	!	!	!	!	!	!	!
8D\	.	.	8d\	.	16A-/	.	8ff#|>\	.	4D\	cum	4d\	cum	4a\	cu(m)	4ff#\	cum	.	.	.	.	.	.	.	.
.	.	.	.	.	16d/	.	.	.	.	.	.	.	.	.	.	.	.	.	.	.	.	.	.	.
!	!	!	!	!	!LO:SIC:v:s=16An/	!	!	!	!	!	!	!	!	!	!	!	!	!	!	!	!	!	!	!
8D\J	.	.	8d\J	.	16A-/	.	8dd|>\J	.	.	.	.	.	.	.	.	.	.	.	.	.	.	.	.	.
.	.	.	.	.	16d/JJ	.	.	.	.	.	.	.	.	.	.	.	.	.	.	.	.	.	.	.
!LO:LB:g=original	!	!	!	!	!	!	!	!	!	!	!	!	!	!	!	!	!LO:LB:g=original	!	!	!	!LO:LB:g=original	!	!	!
=36	=36	=36	=36	=36	=36	=36	=36	=36	=36	=36	=36	=36	=36	=36	=36	=36	=36	=36	=36	=36	=36	=36	=36	=36
8G\L	5 3	.	8B-/L	.	16d/LL	.	(8b-\L	.	2G\	Pa-	2B-\	Pa-	2d\	Pa-	2gg\	Pa-	1G	.	1g	.	1dd	.	1gg	.
.	.	.	.	.	16d/	.	.	.	.	.	.	.	.	.	.	.	.	.	.	.	.	.	.	.
8G\	.	.	8B-/	.	16d/	.	8bb-\)	.	.	.	.	.	.	.	.	.	.	.	.	.	.	.	.	.
.	.	.	.	.	16d/	.	.	.	.	.	.	.	.	.	.	.	.	.	.	.	.	.	.	.
8G\	.	.	8B-/	.	16d/	.	8bb-|>\	.	.	.	.	.	.	.	.	.	.	.	.	.	.	.	.	.
.	.	.	.	.	16d/	.	.	.	.	.	.	.	.	.	.	.	.	.	.	.	.	.	.	.
8G\J	.	.	8B-/J	.	16d/	.	8bb-|>\J	.	.	.	.	.	.	.	.	.	.	.	.	.	.	.	.	.
.	.	.	.	.	16d/JJ	.	.	.	.	.	.	.	.	.	.	.	.	.	.	.	.	.	.	.
8G\L	.	.	8B-/L	.	16d/LL	.	(8bb-\L	.	4B-\	-tre	4B-\	-tre	4d\	-tre	4gg\	-tre	.	.	.	.	.	.	.	.
.	.	.	.	.	16d/	.	.	.	.	.	.	.	.	.	.	.	.	.	.	.	.	.	.	.
8G\	.	.	8B-/	.	16d/	.	8gg\)	.	.	.	.	.	.	.	.	.	.	.	.	.	.	.	.	.
.	.	.	.	.	16d/	.	.	.	.	.	.	.	.	.	.	.	.	.	.	.	.	.	.	.
8G\	.	.	8B-/	.	16d/	.	8gg|>\	.	4B-\	et	4B-\	et	4d\	et	4gg\	et	.	.	.	.	.	.	.	.
.	.	.	.	.	16d/	.	.	.	.	.	.	.	.	.	.	.	.	.	.	.	.	.	.	.
8G\J	.	.	8B-/J	.	16d/	.	8dd|>\J	.	.	.	.	.	.	.	.	.	.	.	.	.	.	.	.	.
.	.	.	.	.	16d/JJ	.	.	.	.	.	.	.	.	.	.	.	.	.	.	.	.	.	.	.
!	!	!	!	!	!	!	!	!	!	!	!	!	!LO:LB:g=original	!	!	!	!	!	!	!	!	!	!	!
=37	=37	=37	=37	=37	=37	=37	=37	=37	=37	=37	=37	=37	=37	=37	=37	=37	=37	=37	=37	=37	=37	=37	=37	=37
8G\L	6_ 3_	.	8B-/L	.	16e-/LL	.	(8ee-\L	.	4.e-\	Fi-	4.B-\	Fi-	4.e-\	Fi-	4.gg\	Fi-	1G	.	1e-	.	1ee-	.	1gg	.
.	.	.	.	.	16e-/	.	.	.	.	.	.	.	.	.	.	.	.	.	.	.	.	.	.	.
8G\	.	.	8B-/	.	16e-/	.	8gg\)	.	.	.	.	.	.	.	.	.	.	.	.	.	.	.	.	.
.	.	.	.	.	16e-/	.	.	.	.	.	.	.	.	.	.	.	.	.	.	.	.	.	.	.
8G\	.	.	8B-/	.	16e-/	.	8bb-|>\	.	.	.	.	.	.	.	.	.	.	.	.	.	.	.	.	.
.	.	.	.	.	16e-/	.	.	.	.	.	.	.	.	.	.	.	.	.	.	.	.	.	.	.
8G\J	.	.	8B-/J	.	16e-/	.	8bb-|>\J	.	8e-\	-li-	8B-\	-li-	8e-\	-li-	8gg\	-li-	.	.	.	.	.	.	.	.
.	.	.	.	.	16e-/JJ	.	.	.	.	.	.	.	.	.	.	.	.	.	.	.	.	.	.	.
!	!	!	!	!	!LO:SIC:v:s=16e-/LL	!	!	!	!	!	!	!	!	!	!	!	!	!	!	!	!	!	!	!
8G\L	x x	.	8B-/L	.	16f/LL	.	(8bb-\L	.	2E-\	-o	2B-\	-o	2e-\	-o	2gg\	-o	.	.	.	.	.	.	.	.
!	!	!	!	!	!LO:SIC:v:s=16e-/	!	!	!	!	!	!	!	!	!	!	!	!	!	!	!	!	!	!	!
.	.	.	.	.	16f/	.	.	.	.	.	.	.	.	.	.	.	.	.	.	.	.	.	.	.
!	!	!	!	!	!LO:SIC:v:s=16e-/	!	!	!	!	!	!	!	!	!	!	!	!	!	!	!	!	!	!	!
8G\	.	.	8B-/	.	16f/	.	8gg\)	.	.	.	.	.	.	.	.	.	.	.	.	.	.	.	.	.
!	!	!	!	!	!LO:SIC:v:s=16e-/	!	!	!	!	!	!	!	!	!	!	!	!	!	!	!	!	!	!	!
.	.	.	.	.	16f/	.	.	.	.	.	.	.	.	.	.	.	.	.	.	.	.	.	.	.
!	!	!	!	!	!LO:SIC:v:s=16e-/	!	!	!	!	!	!	!	!	!	!	!	!	!	!	!	!	!	!	!
8G\	.	.	8B-/	.	16f/	.	8gg|>\	.	.	.	.	.	.	.	.	.	.	.	.	.	.	.	.	.
!	!	!	!	!	!LO:SIC:v:s=16e-/	!	!	!	!	!	!	!	!	!	!	!	!	!	!	!	!	!	!	!
.	.	.	.	.	16f/	.	.	.	.	.	.	.	.	.	.	.	.	.	.	.	.	.	.	.
!	!	!	!	!	!LO:SIC:v:s=16e-/	!	!	!	!	!	!	!	!	!	!	!	!	!	!	!	!	!	!	!
8G\J	.	.	8B-/J	.	16f/	.	8ee-|>\J	.	.	.	.	.	.	.	.	.	.	.	.	.	.	.	.	.
!	!	!	!	!	!LO:SIC:v:s=16e-/JJ	!	!	!	!	!	!	!	!	!	!	!	!	!	!	!	!	!	!	!
.	.	.	.	.	16f/JJ	.	.	.	.	.	.	.	.	.	.	.	.	.	.	.	.	.	.	.
!	!	!	!	!	!	!	!	!	!LO:LB:g=original	!	!	!	!	!	!	!	!	!	!	!	!	!	!	!
=38	=38	=38	=38	=38	=38	=38	=38	=38	=38	=38	=38	=38	=38	=38	=38	=38	=38	=38	=38	=38	=38	=38	=38	=38
8G\L	6\_ 3_	.	8B-/L	.	16en/LL	.	(8een\L	.	4En\	Si-	4B-\	si-	4en\	si-	4gg\	si-	1G	.	1g	.	1eeX	.	1gg	.
.	.	.	.	.	16en/	.	.	.	.	.	.	.	.	.	.	.	.	.	.	.	.	.	.	.
8G\	.	.	8B-/	.	16en/	.	8gg\)	.	.	.	.	.	.	.	.	.	.	.	.	.	.	.	.	.
.	.	.	.	.	16en/	.	.	.	.	.	.	.	.	.	.	.	.	.	.	.	.	.	.	.
8G\	.	.	8B-/	.	16en/	.	8bb-|>\	.	4E\	-mul	4B-\	-mul	4e\	-mul	4gg\	-mul	.	.	.	.	.	.	.	.
.	.	.	.	.	16en/	.	.	.	.	.	.	.	.	.	.	.	.	.	.	.	.	.	.	.
8G\J	.	.	8B-/J	.	16en/	.	8bb-|>\J	.	.	.	.	.	.	.	.	.	.	.	.	.	.	.	.	.
.	.	.	.	.	16en/JJ	.	.	.	.	.	.	.	.	.	.	.	.	.	.	.	.	.	.	.
*	*	*	*Xtremolo	*	*	*	*	*	*	*	*	*	*	*	*	*	*	*	*	*	*	*	*	*
8G\L	x x	.	8B-/L	.	16en/LL	.	(8bb-\L	.	4G\	a-	4B-\	a-	4e\	a-	4gg\	a-	.	.	.	.	.	.	.	.
.	.	.	.	.	16en/	.	.	.	.	.	.	.	.	.	.	.	.	.	.	.	.	.	.	.
8G\	.	.	8B-/	.	16en/	.	8gg\)	.	.	.	.	.	.	.	.	.	.	.	.	.	.	.	.	.
.	.	.	.	.	16en/JJ	.	.	.	.	.	.	.	.	.	.	.	.	.	.	.	.	.	.	.
8G\	.	.	8c#X/	.	16g/LL	.	8een|>\	.	4C#X/	-do-	4B-\	-do-	4e\	-do-	4gg\	-do-	.	.	.	.	.	.	.	.
.	.	.	.	.	16g/	.	.	.	.	.	.	.	.	.	.	.	.	.	.	.	.	.	.	.
8G\J	.	.	8c#/J	.	16g/	.	8cc#X|>\J	.	.	.	.	.	.	.	.	.	.	.	.	.	.	.	.	.
.	.	.	.	.	16g/JJ	.	.	.	.	.	.	.	.	.	.	.	.	.	.	.	.	.	.	.
*Xtremolo	*	*	*	*	*Xtremolo	*	*	*	*	*	*	*	*	*	*	*	*	*	*	*	*	*	*	*
!	!	!	!LO:LB:g=original	!	!	!	!	!	!	!	!	!	!	!	!	!	!	!	!	!	!	!	!	!
=39	=39	=39	=39	=39	=39	=39	=39	=39	=39	=39	=39	=39	=39	=39	=39	=39	=39	=39	=39	=39	=39	=39	=39	=39
!	!	!	!	!	!LO:SIC:v:n=2:s=4An/	!	!	!	!	!	!	!	!	!	!	!	!	!	!	!	!	!	!	!
8F#X|>\L	.	.	4d\	.	4A-/ 4f#X	.	8dd|>\L	.	2D\	-ra-	2d\	-ra-	2an\	-ra-	2ff#X\	-ra-	1r	.	1r	.	4dd\	.	4ff#X\	.
8d|>\	.	.	.	.	.	.	8dd|>\	.	.	.	.	.	.	.	.	.	.	.	.	.	.	.	.	.
!LO:SIC:v:s=8An|>\	!	!	!	!	!	!	!LO:SIC:v:s=8an|>\	!	!	!	!	!	!	!	!	!	!	!	!	!	!	!	!	!
!	!	!	!	!	!LO:SIC:v:n=2:s=4An/	!	!	!	!	!	!	!	!	!	!	!	!	!	!	!	!	!	!	!
8A-|>\	.	.	4d\	.	4A-/ 4f#	.	8a-|>\	.	.	.	.	.	.	.	.	.	.	.	.	.	4dd\	.	4ff#\	.
8F#|>\J	.	.	.	.	.	.	8f#X|>\J	.	.	.	.	.	.	.	.	.	.	.	.	.	.	.	.	.
!	!	!	!	!	!	!	!LO:LB:g=original	!	!	!	!	!	!	!	!LO:LB:g=original	!	!	!	!	!	!	!	!	!
=-	=-	=-	=-	=-	=-	=-	=-	=-	=-	=-	=-	=-	=-	=-	=-	=-	=-	=-	=-	=-	=-	=-	=-	=-
!	!	!	!	!	!LO:SIC:v:n=2:s=4An/	!	!	!	!	!	!	!	!	!	!	!	!	!	!	!	!	!	!	!
4D|>\	.	.	4d\	.	4A-/ 4f#	.	4.d/	.	4.D\	-tur	4.d\	-tur	4.a\	-tur	4.dd\	-tur	.	.	.	.	2dd\	.	2ff#\	.
!	!	!	!	!	!LO:SIC:v:s=4An/	!	!	!	!	!	!	!	!	!	!	!	!	!	!	!	!	!	!	!
4D\	.	.	4r	.	4A-/	.	.	.	.	.	.	.	.	.	.	.	.	.	.	.	.	.	.	.
.	.	.	.	.	.	.	8f#X/	.	8D\	et	8d\	et	8a\	et	8ff#X\	et	.	.	.	.	.	.	.	.
!	!	!	!	!	!LO:LB:g=original	!	!	!	!	!	!	!	!	!	!	!	!	!	!	!	!	!	!	!
=40	=40	=40	=40	=40	=40	=40	=40	=40	=40	=40	=40	=40	=40	=40	=40	=40	=40	=40	=40	=40	=40	=40	=40	=40
*tremolo	*	*	*	*	*	*	*	*	*	*	*	*	*	*	*	*	*	*	*	*	*	*	*	*
!	!	!	!	!	!	!	!LO:TUP:b	!	!	!	!	!	!	!	!	!	!	!	!	!	!	!	!	!
8G\L	5 n	.	8g\	.	8d/	.	12g|</L	.	4G\	con-	4d\	con-	4bn\	con-	4gg\	con-	1G	.	1g	.	2.dd\	.	2.gg\	.
.	.	.	.	.	.	.	12bn|</	.	.	.	.	.	.	.	.	.	.	.	.	.	.	.	.	.
8G\	.	.	4g\	.	4d/	.	.	.	.	.	.	.	.	.	.	.	.	.	.	.	.	.	.	.
.	.	.	.	.	.	.	12cc|</J	.	.	.	.	.	.	.	.	.	.	.	.	.	.	.	.	.
!	!	!	!	!	!	!	!LO:TUP:a	!	!	!	!	!	!	!	!	!	!	!	!	!	!	!	!	!
!	!	!	!	!	!	!	!LO:TX:a:t=P:problem=♮ above	!	!	!	!	!	!	!	!	!	!	!	!	!	!	!	!	!
8G\	.	.	.	.	.	.	12dd|>\L	.	4G\	-glo-	4d\	-glo-	4b\	-glo-	4gg\	-glo-	.	.	.	.	.	.	.	.
.	.	.	.	.	.	.	12ee-\	.	.	.	.	.	.	.	.	.	.	.	.	.	.	.	.	.
8G\J	6	.	8g\	.	4d/	.	.	.	.	.	.	.	.	.	.	.	.	.	.	.	.	.	.	.
.	.	.	.	.	.	.	12ff#X|>\J	.	.	.	.	.	.	.	.	.	.	.	.	.	.	.	.	.
8Bn\L	.	.	8bn\	.	.	.	8gg|>\L	.	4Bn\	-ri-	4Bn\	-ri-	4dd\	-ri-	4gg\	-ri-	.	.	.	.	.	.	.	.
8Bn\	.	.	4b\	.	4d/	.	8dd|>\	.	.	.	.	.	.	.	.	.	.	.	.	.	.	.	.	.
8Bn\	.	.	.	.	.	.	8gg|>\	.	4B\	-fi-	4B\	-fi-	4dd\	-fi-	4ffn\	-fi-	.	.	.	.	4dd\	.	4ffnX\	.
8Bn\J	.	.	8b\	.	8d/	.	8ffn|>\J	.	.	.	.	.	.	.	.	.	.	.	.	.	.	.	.	.
=41	=41	=41	=41	=41	=41	=41	=41	=41	=41	=41	=41	=41	=41	=41	=41	=41	=41	=41	=41	=41	=41	=41	=41	=41
*	*	*	*	*	*	*	*Xtuplet	*	*	*	*	*	*	*	*	*	*	*	*	*	*	*	*	*
!	!	!	!	!	!	!	!LO:TX:a:t=P:problem=♭ above	!	!	!	!	!	!	!	!	!	!	!	!	!	!	!	!	!
8c\L	5_ 3_	.	8cc\L	.	8g/	.	12ee-|>\L	.	4c\	-ca-	4c\	-ca-	4g\	-ca-	4ee-\	-ca-	4G/	.	4g\	.	1cc	.	1ee-	.
.	.	.	.	.	.	.	(12gg\	.	.	.	.	.	.	.	.	.	.	.	.	.	.	.	.	.
8c\	.	.	8cc\	.	4g/	.	.	.	.	.	.	.	.	.	.	.	.	.	.	.	.	.	.	.
.	.	.	.	.	.	.	12ee-\J)	.	.	.	.	.	.	.	.	.	.	.	.	.	.	.	.	.
8c\	.	.	8g\	.	.	.	12cc|>\L	.	4c\	-tur	4c\	-tur	4g\	-tur	4ee-\	-tur	4r	.	4r	.	.	.	.	.
.	.	.	.	.	.	.	(12ee-\	.	.	.	.	.	.	.	.	.	.	.	.	.	.	.	.	.
8c\J	.	.	8g\J	.	4g/	.	.	.	.	.	.	.	.	.	.	.	.	.	.	.	.	.	.	.
.	.	.	.	.	.	.	12cc\J)	.	.	.	.	.	.	.	.	.	.	.	.	.	.	.	.	.
8C/L	.x x	.	8e-\L	.	.	.	12g|</L	.	4C/	qui	4c\	qui	4g\	qui	4ee-\	qui	2r	.	2r	.	.	.	.	.
.	.	.	.	.	.	.	(12cc/	.	.	.	.	.	.	.	.	.	.	.	.	.	.	.	.	.
8C/	.	.	8e-\	.	4g/	.	.	.	.	.	.	.	.	.	.	.	.	.	.	.	.	.	.	.
.	.	.	.	.	.	.	12g/J)	.	.	.	.	.	.	.	.	.	.	.	.	.	.	.	.	.
8C/	.	.	8c\	.	.	.	12e-|</L	.	4C/	lo-	4c\	lo-	4g\	lo-	4ee-\	lo-	.	.	.	.	.	.	.	.
.	.	.	.	.	.	.	(12g/	.	.	.	.	.	.	.	.	.	.	.	.	.	.	.	.	.
8C/J	.	.	8c\J	.	8g/	.	.	.	.	.	.	.	.	.	.	.	.	.	.	.	.	.	.	.
.	.	.	.	.	.	.	12e-/J)	.	.	.	.	.	.	.	.	.	.	.	.	.	.	.	.	.
!	!	!	!	!	!	!	!	!	!	!	!LO:LB:g=original	!	!	!	!	!	!	!	!LO:LB:g=original	!	!	!	!	!
=42	=42	=42	=42	=42	=42	=42	=42	=42	=42	=42	=42	=42	=42	=42	=42	=42	=42	=42	=42	=42	=42	=42	=42	=42
8F\L	5 3	.	8f\	.	8c/	.	12f|</L	.	4.F\	-cu-	4.c\	-cu-	4.an\	-cu-	4.ff\	-cu-	1f	.	1f	.	2.cc\	.	2.ff\	.
.	.	.	.	.	.	.	12an|</	.	.	.	.	.	.	.	.	.	.	.	.	.	.	.	.	.
8F\	.	.	4f\	.	4c/	.	.	.	.	.	.	.	.	.	.	.	.	.	.	.	.	.	.	.
.	.	.	.	.	.	.	12b-|</J	.	.	.	.	.	.	.	.	.	.	.	.	.	.	.	.	.
8F\	.	.	.	.	.	.	12cc|>\L	.	.	.	.	.	.	.	.	.	.	.	.	.	.	.	.	.
.	.	.	.	.	.	.	12dd|>\	.	.	.	.	.	.	.	.	.	.	.	.	.	.	.	.	.
8F\J	.	.	8f\	.	4c/	.	.	.	8F\	-t(us)	8c\	-tus	8a\	-tus	8ff\	-tus	.	.	.	.	.	.	.	.
.	.	.	.	.	.	.	12een|>\J	.	.	.	.	.	.	.	.	.	.	.	.	.	.	.	.	.
8An\L	6	.	8an\	.	.	.	8ff\L	.	2An\	eſt	2An\	eſt	2cc\	eſt	(4ff\	eſt	.	.	.	.	.	.	.	.
8An\	.	.	4a\	.	4c/	.	8cc\	.	.	.	.	.	.	.	.	.	.	.	.	.	.	.	.	.
8An\	.	.	.	.	.	.	8ff\	.	.	.	.	.	.	.	4ee-X\)	.	.	.	.	.	4cc\	.	4ee-X\	.
8An\J	.	.	8a\	.	8c/	.	8ee-X\J	.	.	.	.	.	.	.	.	.	.	.	.	.	.	.	.	.
!	!	!	!	!	!	!	!	!	!	!	!	!	!LO:LB:g=original	!	!	!	!	!	!	!	!	!	!	!
=43	=43	=43	=43	=43	=43	=43	=43	=43	=43	=43	=43	=43	=43	=43	=43	=43	=43	=43	=43	=43	=43	=43	=43	=43
8B-X\L	5 3	.	8b-\L	.	8fn/	.	12dd|>\L	.	4B-\	per	4B-\	per	4f\	per	4dd\	per	4B-/	.	4f\	.	1b-	.	1dd	.
.	.	.	.	.	.	.	(12ff\	.	.	.	.	.	.	.	.	.	.	.	.	.	.	.	.	.
8B-X\	.	.	8b-\	.	4f/	.	.	.	.	.	.	.	.	.	.	.	.	.	.	.	.	.	.	.
.	.	.	.	.	.	.	12dd\J)	.	.	.	.	.	.	.	.	.	.	.	.	.	.	.	.	.
8B-X\	.	.	8f\	.	.	.	12b-|>\L	.	4B-\	Pro-	4B-\	Pro-	4f\	Pro-	4dd\	pro-	4r	.	4r	.	.	.	.	.
.	.	.	.	.	.	.	(12dd\	.	.	.	.	.	.	.	.	.	.	.	.	.	.	.	.	.
8B-X\J	.	.	8f\J	.	4f/	.	.	.	.	.	.	.	.	.	.	.	.	.	.	.	.	.	.	.
.	.	.	.	.	.	.	12b-\J)	.	.	.	.	.	.	.	.	.	.	.	.	.	.	.	.	.
8BB-/L	.	.	8d\L	.	.	.	12f|</L	.	2BB-/	-phe-	2B-\	-phe-	2f\	-phe-	2dd\	-phe-	2r	.	2r	.	.	.	.	.
.	.	.	.	.	.	.	(12b-/	.	.	.	.	.	.	.	.	.	.	.	.	.	.	.	.	.
8BB-/	.	.	8d\	.	4f/	.	.	.	.	.	.	.	.	.	.	.	.	.	.	.	.	.	.	.
.	.	.	.	.	.	.	12f/J)	.	.	.	.	.	.	.	.	.	.	.	.	.	.	.	.	.
8BB-/	.	.	8B-\	.	.	.	12d|</L	.	.	.	.	.	.	.	.	.	.	.	.	.	.	.	.	.
.	.	.	.	.	.	.	(12f/	.	.	.	.	.	.	.	.	.	.	.	.	.	.	.	.	.
8BB-/J	.	.	8B-\J	.	8f/	.	.	.	.	.	.	.	.	.	.	.	.	.	.	.	.	.	.	.
.	.	.	.	.	.	.	12d/J)	.	.	.	.	.	.	.	.	.	.	.	.	.	.	.	.	.
*Xtremolo	*	*	*	*	*	*	*	*	*	*	*	*	*	*	*	*	*	*	*	*	*	*	*	*
!	!	!	!LO:LB:g=original	!	!	!	!LO:LB:g=original	!	!LO:LB:g=original	!	!	!	!	!	!	!	!	!	!	!	!	!	!	!
=44	=44	=44	=44	=44	=44	=44	=44	=44	=44	=44	=44	=44	=44	=44	=44	=44	=44	=44	=44	=44	=44	=44	=44	=44
4D\	6	.	2f\	.	8a-X/	.	12B-|</L	.	4BB-/	-tas.	4B-\	-tas.	4f\	-tas.	4dd\	-tas.	2B-/	.	2f\	.	4cc\	.	4ff\	.
.	.	.	.	.	.	.	12d|</	.	.	.	.	.	.	.	.	.	.	.	.	.	.	.	.	.
.	.	.	.	.	4a-/	.	.	.	.	.	.	.	.	.	.	.	.	.	.	.	.	.	.	.
.	.	.	.	.	.	.	12f|</J	.	.	.	.	.	.	.	.	.	.	.	.	.	.	.	.	.
4D\	6 5- 3	.	.	.	.	.	12b-|>\L	.	4r	.	4r	.	4r	.	4r	.	.	.	.	.	4ff\	.	4aa-X\	.
.	.	.	.	.	.	.	12dd|>\	.	.	.	.	.	.	.	.	.	.	.	.	.	.	.	.	.
.	.	.	.	.	8a-/	.	.	.	.	.	.	.	.	.	.	.	.	.	.	.	.	.	.	.
.	.	.	.	.	.	.	12ff|>\J	.	.	.	.	.	.	.	.	.	.	.	.	.	.	.	.	.
4E-\	3 1	.	2b-\	.	8g/	.	12e-|</L	.	2r	.	2r	.	2r	.	2r	.	2e-\	.	2g\	.	2ee-\	.	2gg\	.
.	.	.	.	.	.	.	12g|</	.	.	.	.	.	.	.	.	.	.	.	.	.	.	.	.	.
.	.	.	.	.	4g/	.	.	.	.	.	.	.	.	.	.	.	.	.	.	.	.	.	.	.
.	.	.	.	.	.	.	12b-|</J	.	.	.	.	.	.	.	.	.	.	.	.	.	.	.	.	.
4E-\	.	.	.	.	.	.	12ee-|>\L	.	.	.	.	.	.	.	.	.	.	.	.	.	.	.	.	.
.	.	.	.	.	.	.	12gg|>\	.	.	.	.	.	.	.	.	.	.	.	.	.	.	.	.	.
.	.	.	.	.	8g/	.	.	.	.	.	.	.	.	.	.	.	.	.	.	.	.	.	.	.
.	.	.	.	.	.	.	12bb-|>\J	.	.	.	.	.	.	.	.	.	.	.	.	.	.	.	.	.
!	!	!	!	!	!	!	!	!	!	!	!	!	!	!	!LO:LB:g=original	!	!LO:LB:g=original	!	!	!	!	!	!LO:LB:g=original	!
=45	=45	=45	=45	=45	=45	=45	=45	=45	=45	=45	=45	=45	=45	=45	=45	=45	=45	=45	=45	=45	=45	=45	=45	=45
!	!	!	!	!	!	!	!	!	!	!	!	!	!	!	!LO:TX:a:t=1	!	!	!	!	!	!	!	!	!
4B-\	5_ 3_	.	4f\	.	4f\ 4dd	.	12ff|>\L	.	1r	.	1r	.	1r	.	1r	.	4B-/	.	4f\	.	4dd\	.	4bb-\	.
.	.	.	.	.	.	.	(12bb-\	.	.	.	.	.	.	.	.	.	.	.	.	.	.	.	.	.
.	.	.	.	.	.	.	12ff\J)	.	.	.	.	.	.	.	.	.	.	.	.	.	.	.	.	.
4F\	x x	.	4f\	.	4d/ 4b-	.	12dd|>\L	.	.	.	.	.	.	.	.	.	4B-/	.	4f\	.	4dd\	.	4ff\	.
.	.	.	.	.	.	.	(12ff\	.	.	.	.	.	.	.	.	.	.	.	.	.	.	.	.	.
.	.	.	.	.	.	.	12dd\J)	.	.	.	.	.	.	.	.	.	.	.	.	.	.	.	.	.
4BB-/	.	.	4f\	.	4d/ 4b-	.	4b-\	.	.	.	.	.	.	.	.	.	4B-/	.	4f\	.	4b-\	.	4dd\	.
4r	.	.	4r	.	4r	.	4B-/	.	.	.	.	.	.	.	.	.	4r	.	4r	.	4r	.	4r	.
!LO:LB:g=original	!	!	!	!	!	!	!	!	!	!	!	!	!	!	!	!	!	!	!	!	!LO:LB:g=original	!	!	!
=46	=46	=46	=46	=46	=46	=46	=46	=46	=46	=46	=46	=46	=46	=46	=46	=46	=46	=46	=46	=46	=46	=46	=46	=46
!	!	!	!	!	!LO:TX:t=P:problem=mixed beam	!	!	!LO:DY:b:t=ff&colon;:rj	!	!	!	!	!	!	!	!	!	!	!	!	!	!	!	!
!	!	!	!	!	!	!	!	!	!	!	!	!	!	!	!	!	!	!LO:DY:b:rj	!	!	!	!	!	!
8E-\L	5 3	.	8e-\L	.	(16e-/LL	.	(16e-/LL	ff	2E-\	Et	2g\	Et	2b-\	Et	2ee-\	Et	4E-/	f	4e-\	.	4b-\	f	4ee-\	.
!	!	!	!	!	!	!LO:DY:b	!	!	!	!	!	!	!	!	!	!	!	!	!	!	!	!	!	!
.	.	.	.	.	16ee-\)	f	16ee-/)	.	.	.	.	.	.	.	.	.	.	.	.	.	.	.	.	.
8e-\	.	.	8e-\	.	16ee-|>\	.	16ee-|</	.	.	.	.	.	.	.	.	.	.	.	.	.	.	.	.	.
.	.	.	.	.	16ee-|>\JJ	.	16ee-|</JJ	.	.	.	.	.	.	.	.	.	.	.	.	.	.	.	.	.
8e-\	.	.	8e-\	.	(16ee-\LL	.	(16ee-/LL	.	.	.	.	.	.	.	.	.	4E-/	.	4e-\	.	8ee-'\L	.	8ff\L	.
.	.	.	.	.	16b-\)	.	16b-/)	.	.	.	.	.	.	.	.	.	.	.	.	.	.	.	.	.
8B-\J	.	.	8b-\J	.	16b-|>\	.	16b-|</	.	.	.	.	.	.	.	.	.	.	.	.	.	8gg'\J	.	8bb-\J	.
.	.	.	.	.	16b-|>\JJ	.	16b-|</JJ	.	.	.	.	.	.	.	.	.	.	.	.	.	.	.	.	.
!	!	!	!	!	!LO:LB:g=original	!	!	!	!	!	!	!	!	!	!	!	!	!	!	!	!	!	!	!
=-	=-	=-	=-	=-	=-	=-	=-	=-	=-	=-	=-	=-	=-	=-	=-	=-	=-	=-	=-	=-	=-	=-	=-	=-
8B-\L	.	.	8b-\L	.	(16b-\LL	.	(16b-/LL	.	4E-\	u-	4g\	u-	4b-\	u-	4ee-\	u-	4E-/	.	4e-\	f	(8gg\L	.	(8bb-\L	.
.	.	.	.	.	16g\)	.	16g/)	.	.	.	.	.	.	.	.	.	.	.	.	.	.	.	.	.
8G\	.	.	8g\	.	16g|>\	.	16g|</	.	.	.	.	.	.	.	.	.	.	.	.	.	8ee-\)	.	8gg\)	.
.	.	.	.	.	16g|>\JJ	.	16g|</JJ	.	.	.	.	.	.	.	.	.	.	.	.	.	.	.	.	.
8G\	.	.	8g\	.	(16g/LL	.	(16g/LL	.	4E-\	-nam	4g\	-nam	4b-\	-nam	4ee-\	-nam	4E-/	.	4e-\	.	(8ee-\	.	(8gg\	.
.	.	.	.	.	16e-/)	.	16e-/)	.	.	.	.	.	.	.	.	.	.	.	.	.	.	.	.	.
8E-\J	.	.	8e-\J	.	16e-|</	.	16e-|</	.	.	.	.	.	.	.	.	.	.	.	.	.	8b-\J)	.	8ee-\J)	.
.	.	.	.	.	16e-|</JJ	.	16e-|</JJ	.	.	.	.	.	.	.	.	.	.	.	.	.	.	.	.	.
=47	=47	=47	=47	=47	=47	=47	=47	=47	=47	=47	=47	=47	=47	=47	=47	=47	=47	=47	=47	=47	=47	=47	=47	=47
*	*	*	*	*	*^	*	*	*	*	*	*	*	*	*	*	*	*	*	*	*	*	*	*	*
4E-\	.	.	4B-/	.	8ryy	4B-/	.	4B-/	.	4E-\	San-	4e-\	San-	4b-\	Sanc-	4gg\	San-	4E-/	.	4e-\	.	8r	.	8r	.
!	!	!	!	!	!LO:N:cue	!	!	!	!	!	!	!	!	!	!	!	!	!	!	!	!	!	!	!	!
.	.	.	.	.	8e-\L	.	.	.	.	.	.	.	.	.	.	.	.	.	.	.	.	8ee-'\L	p	8gg\L	p
!	!	!	!	!	!LO:N:cue	!	!	!	!	!	!	!	!	!	!	!	!	!	!	!	!	!	!	!	!
4r	.	.	4r	.	8e-\	4ra	.	4r	.	8E-\	-ctam	8e-\	-cta(m)	8b-\	-tam	8gg\	-ctam	4r	.	4r	.	8ee-'\	.	8gg\	.
!	!	!	!	!	!LO:N:cue	!	!	!	!	!	!	!	!	!	!	!	!	!	!	!	!	!	!	!	!
.	.	.	.	.	8e-\J	.	.	.	.	8E-\	Ca-	8e-\	Ca-	8b-\	Ca-	8gg\	Ca-	.	.	.	.	8ee-'\J	.	8gg\J	.
!	!	!	!	!	!LO:N:cue	!	!	!	!	!	!	!	!	!	!	!	!	!	!	!	!	!	!	!	!
2r	.	.	2r	.	4g\	2rb	.	2r	.	4E-\	-tho-	4e-\	-tho-	4g\	-tho-	4bb-\	-tho-	2r	.	2r	.	4gg\	.	4bb-\	.
!	!	!	!	!	!LO:N:cue	!	!	!	!	!	!	!	!	!	!	!	!	!	!	!	!	!	!	!	!
.	.	.	.	.	8f\L	.	.	.	.	8D\	-li-	8d\	-li-	8f\	-li-	8aa-\	-li-	.	.	.	.	(8ff\L	.	8aa-\L	.
!	!	!	!	!	!LO:N:cue	!	!	!	!	!	!	!	!	!	!	!	!	!	!	!	!	!	!	!	!
.	.	.	.	.	8e-\J	.	.	.	.	8E-\	-cam	8e-\	-cam	8e-\	-ca(m)	8gg\	-cam	.	.	.	.	8ee-\J)	.	8gg\J	.
*	*	*	*	*	*v	*v	*	*	*	*	*	*	*	*	*	*	*	*	*	*	*	*	*	*	*
!	!	!	!	!	!	!	!	!	!	!	!LO:LB:g=original	!	!	!	!	!	!	!	!	!	!	!	!	!
=48	=48	=48	=48	=48	=48	=48	=48	=48	=48	=48	=48	=48	=48	=48	=48	=48	=48	=48	=48	=48	=48	=48	=48	=48
!LO:TX:t=P:problem=mixed beam	!	!	!LO:TX:t=P:problem=mixed beam	!	!	!	!	!	!	!	!	!	!	!	!	!	!	!	!	!	!	!	!	!
8BB-/L	5_ 3_	.	8B-/L	.	(16B-/LL	.	(16b-\LL	.	2B-\	et	2B-\	et	2d\	et	2ff\	et	4B-/	.	4b-\	.	4dd\	.	4bb-\	.
.	.	.	.	.	16b-/)	.	16bb-\)	.	.	.	.	.	.	.	.	.	.	.	.	.	.	.	.	.
8B-\	.	.	8b-\	.	16b-|</	.	16bb-|>\	.	.	.	.	.	.	.	.	.	.	.	.	.	.	.	.	.
.	.	.	.	.	16b-|</JJ	.	16bb-|>\JJ	.	.	.	.	.	.	.	.	.	.	.	.	.	.	.	.	.
8B-\	x x	.	8b-\	.	(16b-/LL	.	(16bb-\LL	.	.	.	.	.	.	.	.	.	4B-/	.	4b-\	.	8dd\L	f	8bb-\L	.
.	.	.	.	.	16f/)	.	16ff\)	.	.	.	.	.	.	.	.	.	.	.	.	.	.	.	.	.
8F\J	.	.	8f\J	.	16f|</	.	16ff|>\	.	.	.	.	.	.	.	.	.	.	.	.	.	8dd\J	.	8ff\J	.
.	.	.	.	.	16f|</JJ	.	16ff|>\JJ	.	.	.	.	.	.	.	.	.	.	.	.	.	.	.	.	.
8F\L	.	.	8f\L	.	(16f/LL	.	(16ff\LL	.	4B-\	A-	4B-\	A-	4d\	A-	4ff\	A-	4B-/	.	4b-\	.	(8dd\L	.	8ff\L	.
.	.	.	.	.	16d/)	.	16dd\)	.	.	.	.	.	.	.	.	.	.	.	.	.	.	.	.	.
8D\	.	.	8d\	.	16d|</	.	16dd|>\	.	.	.	.	.	.	.	.	.	.	.	.	.	8b-\)	.	8dd\	.
.	.	.	.	.	16d|</JJ	.	16dd|>\JJ	.	.	.	.	.	.	.	.	.	.	.	.	.	.	.	.	.
!	!	!	!	!	!	!	!LO:LB:g=original	!	!	!	!	!	!	!	!	!	!	!	!	!	!	!	!	!
=-	=-	=-	=-	=-	=-	=-	=-	=-	=-	=-	=-	=-	=-	=-	=-	=-	=-	=-	=-	=-	=-	=-	=-	=-
8D\	.	.	8d\	.	(16d/LL	.	(16dd\LL	.	4B-\	-pos-	4B-\	-pos-	4d\	-pos-	4ff\	-po-	4B-/	.	4b-\	.	(8b-\	.	8dd\	.
.	.	.	.	.	16B-/)	.	16b-\)	.	.	.	.	.	.	.	.	.	.	.	.	.	.	.	.	.
8BB-\J	.	.	8B-\J	.	16B-|</	.	16b-|>\	.	.	.	.	.	.	.	.	.	.	.	.	.	8f\J)	.	8b-\J	.
.	.	.	.	.	16B-|</JJ	.	16b-|>\JJ	.	.	.	.	.	.	.	.	.	.	.	.	.	.	.	.	.
=49	=49	=49	=49	=49	=49	=49	=49	=49	=49	=49	=49	=49	=49	=49	=49	=49	=49	=49	=49	=49	=49	=49	=49	=49
*	*	*	*	*	*^	*	*	*	*	*	*	*	*	*	*	*	*	*	*	*	*	*	*	*
4BB-/	.	.	4F/	.	8ryy	4d/	.	4f/	.	8B-\	-to-	8d\	-to-	8d\	-to-	8ff\	-sto-	4B-/	.	4b-\	.	8r	.	8r	p
!	!	!	!	!	!LO:N:cue	!	!	!	!	!	!	!	!	!	!	!	!	!	!	!	!	!	!	!	!
.	.	.	.	.	8d\L	.	.	.	.	8B-\	-li-	8d\	-li-	8d\	-li-	8ff\	-li-	.	.	.	.	8dd\L	p	8ff\L	.
!	!	!	!	!	!LO:N:cue	!	!	!	!	!	!	!	!	!	!	!	!	!	!	!	!	!	!	!	!
4r	.	.	4r	.	8d\	4ra	.	4r	.	8B-\	-cam	8d\	-cam	8d\	-cam	8ff\	-cam	4r	.	4r	.	8dd\	.	8ff\	.
!	!	!	!	!	!LO:N:cue	!	!	!	!	!	!	!	!	!	!	!	!	!	!	!	!	!	!	!	!
.	.	.	.	.	8d\J	.	.	.	.	8B-\	Ec-	8d\	Ec-	8d\	Ec-	8ff\	Ec-	.	.	.	.	8dd\J	.	8ff\J	.
!	!	!	!	!	!	!	!	!	!	!	!	!	!	!LO:LB:g=original	!	!	!	!	!	!	!	!	!	!	!
=-	=-	=-	=-	=-	=-	=-	=-	=-	=-	=-	=-	=-	=-	=-	=-	=-	=-	=-	=-	=-	=-	=-	=-	=-	=-
!	!	!	!	!	!LO:N:cue	!	!	!	!	!	!	!	!	!	!	!	!	!	!	!	!	!	!	!	!
2r	.	.	2r	.	4f\	2rb	.	2r	.	4B-\	-cle-	4f\	-cle-	4f\	-cle-	4aa-\	-cle-	2r	.	2r	.	4ff\	.	4aa-\	.
!	!	!	!	!	!LO:N:cue	!	!	!	!	!	!	!	!	!	!	!	!	!	!	!	!	!	!	!	!
.	.	.	.	.	8e-\L	.	.	.	.	8B-\	-ſi-	8e-\	-ſi-	8e-\	-si-	8gg\	-si-	.	.	.	.	(8ee-\L	.	8gg\L	.
!	!	!	!	!	!LO:N:cue	!	!	!	!	!	!	!	!	!	!	!	!	!	!	!	!	!	!	!	!
.	.	.	.	.	8d\J	.	.	.	.	8B-\	-am	8d\	-am	8d\	-am	8ff\	-am	.	.	.	.	8dd\J)	.	8ff\J	.
*	*	*	*	*	*v	*v	*	*	*	*	*	*	*	*	*	*	*	*	*	*	*	*	*	*	*
!	!	!	!LO:LB:g=original	!	!	!	!	!	!LO:LB:g=original	!	!	!	!	!	!LO:LB:g=original	!	!	!	!	!	!	!	!LO:LB:g=original	!
=50	=50	=50	=50	=50	=50	=50	=50	=50	=50	=50	=50	=50	=50	=50	=50	=50	=50	=50	=50	=50	=50	=50	=50	=50
*tremolo	*	*	*tremolo	*	*tremolo	*	*	*	*	*	*	*	*	*	*	*	*	*	*	*	*	*	*	*
8E-\L	.	.	8B-/L	.	16B-/LL	.	8e-/	.	2.E-\	con-	2.G/	con-	2.b-\	con-	2.ee-\	con-	1E-	.	1e-	f	2.b-\	f	2ee-\	f
.	.	.	.	.	16B-/	.	.	.	.	.	.	.	.	.	.	.	.	.	.	.	.	.	.	.
8E-\	.	.	8B-/	.	16B-/	.	4e-/ 4ee-	.	.	.	.	.	.	.	.	.	.	.	.	.	.	.	.	.
.	.	.	.	.	16B-/	.	.	.	.	.	.	.	.	.	.	.	.	.	.	.	.	.	.	.
8E-\	.	.	8B-/	.	16B-/	.	.	.	.	.	.	.	.	.	.	.	.	.	.	.	.	.	.	.
.	.	.	.	.	16B-/	.	.	.	.	.	.	.	.	.	.	.	.	.	.	.	.	.	.	.
8E-\J	.	.	8B-/J	.	16B-/	.	(16b-/LL	.	.	.	.	.	.	.	.	.	.	.	.	.	.	.	.	.
.	.	.	.	.	16B-/JJ	.	16g/JJ)	.	.	.	.	.	.	.	.	.	.	.	.	.	.	.	.	.
*	*	*	*Xtremolo	*	*	*	*	*	*	*	*	*	*	*	*	*	*	*	*	*	*	*	*	*
8G\L	5- 3	.	8e-\L	.	16B-/LL	.	8e-/L	.	.	.	.	.	.	.	.	.	.	.	.	.	.	.	4ryy	.
.	.	.	.	.	16B-/	.	.	.	.	.	.	.	.	.	.	.	.	.	.	.	.	.	.	.
8G\	.	.	8e-\	.	16B-/	.	8e-/	.	.	.	.	.	.	.	.	.	.	.	.	.	.	.	.	.
.	.	.	.	.	16B-/	.	.	.	.	.	.	.	.	.	.	.	.	.	.	.	.	.	.	.
8G\	.	.	8g\	.	16B-/	.	8e-/ 8dd-X	.	4G\	-fi-	4G/	-fi-	4b-\	-fi-	4dd-X\	-fi-	.	.	.	.	4b-\	.	4dd-X\	.
.	.	.	.	.	16B-/	.	.	.	.	.	.	.	.	.	.	.	.	.	.	.	.	.	.	.
8G\J	.	.	8g\J	.	16B-/	.	8e-/J 8dd-	.	.	.	.	.	.	.	.	.	.	.	.	.	.	.	.	.
.	.	.	.	.	16B-/JJ	.	.	.	.	.	.	.	.	.	.	.	.	.	.	.	.	.	.	.
*Xtremolo	*	*	*	*	*	*	*	*	*	*	*	*	*	*	*	*	*	*	*	*	*	*	*	*
!	!	!	!	!	!	!	!	!	!	!	!	!	!	!	!	!	!	!	!LO:LB:g=original	!	!LO:LB:g=original	!	!	!
=51	=51	=51	=51	=51	=51	=51	=51	=51	=51	=51	=51	=51	=51	=51	=51	=51	=51	=51	=51	=51	=51	=51	=51	=51
!	!	!	!	!	!LO:TX:b:t=dis	!	!	!	!	!	!	!	!	!	!	!	!	!	!	!	!	!	!	!
8A-\L	5_ 3_	.	8a-|>\L	.	16e-/LL	.	8cc\	.	2A-\	-te-	2A-/	-te-	2e-\	-te-	2cc\	-te-	4r	.	4r	.	1a-X	.	[2cc\	.
.	.	.	.	.	16e-/	.	.	.	.	.	.	.	.	.	.	.	.	.	.	.	.	.	.	.
16A-\L	.	.	(16a-\L	.	16e-/	.	4cc\	.	.	.	.	.	.	.	.	.	.	.	.	.	.	.	.	.
16G\JJ	x x	.	16g\JJ)	.	16e-/	.	.	.	.	.	.	.	.	.	.	.	.	.	.	.	.	.	.	.
8A-\L	.	.	8a-|>\L	.	16e-/	.	.	.	.	.	.	.	.	.	.	.	4E-/	.	4e-\	.	.	.	.	.
.	.	.	.	.	16e-/	.	.	.	.	.	.	.	.	.	.	.	.	.	.	.	.	.	.	.
8G\J	.	.	8e-|>\J	.	16e-/	.	4cc\	.	.	.	.	.	.	.	.	.	.	.	.	.	.	.	.	.
.	.	.	.	.	16e-/JJ	.	.	.	.	.	.	.	.	.	.	.	.	.	.	.	.	.	.	.
8A-\L	.	.	8a-|>\L	.	16e-/LL	.	.	.	2AA-/	-or	2A-/	-or	2e-\	-or	2cc\	-or	4E-/	.	4e-\	.	.	.	2cc\]	.
.	.	.	.	.	16e-/	.	.	.	.	.	.	.	.	.	.	.	.	.	.	.	.	.	.	.
8E-\	.	.	8e-|>\	.	16e-/	.	4cc\	.	.	.	.	.	.	.	.	.	.	.	.	.	.	.	.	.
.	.	.	.	.	16e-/	.	.	.	.	.	.	.	.	.	.	.	.	.	.	.	.	.	.	.
8C\	.	.	8c'\	.	16e-/	.	.	.	.	.	.	.	.	.	.	.	4E-/	.	4e-\	.	.	.	.	.
.	.	.	.	.	16e-/	.	.	.	.	.	.	.	.	.	.	.	.	.	.	.	.	.	.	.
8AA-\J	.	.	8A-'\J	.	16e-/	.	8cc\	.	.	.	.	.	.	.	.	.	.	.	.	.	.	.	.	.
.	.	.	.	.	16e-/JJ	.	.	.	.	.	.	.	.	.	.	.	.	.	.	.	.	.	.	.
!	!	!	!	!	!	!	!	!	!	!	!	!	!	!	!	!	!LO:LB:g=original	!	!	!	!	!	!	!
=52	=52	=52	=52	=52	=52	=52	=52	=52	=52	=52	=52	=52	=52	=52	=52	=52	=52	=52	=52	=52	=52	=52	=52	=52
*tremolo	*	*	*tremolo	*	*	*	*	*	*	*	*	*	*	*	*	*	*	*	*	*	*	*	*	*
8F\L	5 3n	.	8c\L	.	16c/LL	.	8f/	.	2F\	u-	2An/	U-	2cc\	u-	2ff\	u-	1f	.	1f	.	2.cc\	.	2.ff\	.
.	.	.	.	.	16c/	.	.	.	.	.	.	.	.	.	.	.	.	.	.	.	.	.	.	.
8F\	.	.	8c\	.	16c/	.	4ff\	.	.	.	.	.	.	.	.	.	.	.	.	.	.	.	.	.
.	.	.	.	.	16c/	.	.	.	.	.	.	.	.	.	.	.	.	.	.	.	.	.	.	.
8F\	.	.	8c\	.	16c/	.	.	.	.	.	.	.	.	.	.	.	.	.	.	.	.	.	.	.
.	.	.	.	.	16c/	.	.	.	.	.	.	.	.	.	.	.	.	.	.	.	.	.	.	.
8F\J	.	.	8c\J	.	16c/	.	(16cc\LL	.	.	.	.	.	.	.	.	.	.	.	.	.	.	.	.	.
.	.	.	.	.	16c/JJ	.	16an\JJ)	.	.	.	.	.	.	.	.	.	.	.	.	.	.	.	.	.
*	*	*	*Xtremolo	*	*	*	*	*	*	*	*	*	*	*	*	*	*	*	*	*	*	*	*	*
8An\L	6	.	8f\L	.	16c/LL	.	8f/L	.	4An\	-num	4A/	-num	4cc\	-num	4ff\	-num	.	.	.	.	.	.	.	.
.	.	.	.	.	16c/	.	.	.	.	.	.	.	.	.	.	.	.	.	.	.	.	.	.	.
8An\	5 3	.	8f\	.	16c/	.	8f/	.	.	.	.	.	.	.	.	.	.	.	.	.	.	.	.	.
.	.	.	.	.	16c/	.	.	.	.	.	.	.	.	.	.	.	.	.	.	.	.	.	.	.
8An\	.	.	8an\	.	16c/	.	8f/ 8ee-	.	4A\	Bap-	4A/	Bap-	4cc\	Bap-	4ee-\	bap-	.	.	.	.	4cc\	.	4ee-\	.
.	.	.	.	.	16c/	.	.	.	.	.	.	.	.	.	.	.	.	.	.	.	.	.	.	.
8An\J	.	.	8a\J	.	16c/	.	8f/J 8ee-	.	.	.	.	.	.	.	.	.	.	.	.	.	.	.	.	.
.	.	.	.	.	16c/JJ	.	.	.	.	.	.	.	.	.	.	.	.	.	.	.	.	.	.	.
*Xtremolo	*	*	*	*	*	*	*	*	*	*	*	*	*	*	*	*	*	*	*	*	*	*	*	*
!	!	!	!	!	!LO:LB:g=original	!	!	!	!	!	!	!	!	!	!	!	!	!	!	!	!	!	!	!
=53	=53	=53	=53	=53	=53	=53	=53	=53	=53	=53	=53	=53	=53	=53	=53	=53	=53	=53	=53	=53	=53	=53	=53	=53
8B-\L	5_ 3_	.	8b-\L	.	16f/LL	.	8ddn\	.	2B-\	-tis-	2B-\	-tis-	2f\	-tis-	2ddn\	-tis-	4r	.	4r	.	1b-	.	1ddnX	.
.	.	.	.	.	16f/	.	.	.	.	.	.	.	.	.	.	.	.	.	.	.	.	.	.	.
16B-\L	.	.	(16b-\L	.	16f/	.	4dd\	.	.	.	.	.	.	.	.	.	.	.	.	.	.	.	.	.
16An\JJ	x x	.	16an\JJ)	.	16f/	.	.	.	.	.	.	.	.	.	.	.	.	.	.	.	.	.	.	.
8B-\L	.	.	8b-|>\L	.	16f/	.	.	.	.	.	.	.	.	.	.	.	4B-/	.	4f\	.	.	.	.	.
.	.	.	.	.	16f/	.	.	.	.	.	.	.	.	.	.	.	.	.	.	.	.	.	.	.
8F\J	.	.	8f|>\J	.	16f/	.	4dd\	.	.	.	.	.	.	.	.	.	.	.	.	.	.	.	.	.
.	.	.	.	.	16f/JJ	.	.	.	.	.	.	.	.	.	.	.	.	.	.	.	.	.	.	.
!LO:LB:g=original	!	!	!	!	!	!	!	!	!	!	!	!	!	!	!	!	!	!	!	!	!	!	!	!
=-	=-	=-	=-	=-	=-	=-	=-	=-	=-	=-	=-	=-	=-	=-	=-	=-	=-	=-	=-	=-	=-	=-	=-	=-
8B-\L	.	.	8b-|>\L	.	16f/LL	.	.	.	2BB-/	-ma	2B-\	-ma	2f\	-ma	2dd\	-ma	4B-/	.	4f\	.	.	.	.	.
.	.	.	.	.	16f/	.	.	.	.	.	.	.	.	.	.	.	.	.	.	.	.	.	.	.
8F\	.	.	8f|>\	.	16f/	.	4dd\	.	.	.	.	.	.	.	.	.	.	.	.	.	.	.	.	.
.	.	.	.	.	16f/	.	.	.	.	.	.	.	.	.	.	.	.	.	.	.	.	.	.	.
8D\	.	.	8d|>\	.	16f/	.	.	.	.	.	.	.	.	.	.	.	4B-/	.	4f\	.	.	.	.	.
.	.	.	.	.	16f/	.	.	.	.	.	.	.	.	.	.	.	.	.	.	.	.	.	.	.
8BB-\J	.	.	8B-|>\J	.	16f/	.	8dd\	.	.	.	.	.	.	.	.	.	.	.	.	.	.	.	.	.
.	.	.	.	.	16f/JJ	.	.	.	.	.	.	.	.	.	.	.	.	.	.	.	.	.	.	.
!	!	!	!	!	!	!	!	!	!	!	!LO:LB:g=original	!	!	!	!	!	!	!	!	!	!	!	!	!
=54	=54	=54	=54	=54	=54	=54	=54	=54	=54	=54	=54	=54	=54	=54	=54	=54	=54	=54	=54	=54	=54	=54	=54	=54
*tremolo	*	*	*	*	*	*	*	*	*	*	*	*	*	*	*	*	*	*	*	*	*	*	*	*
8D/L	6	.	8f|>\L	.	16f/LL	.	8b-\	.	4.D/	in	4.B-\	in	4.a-X\	in	4.ff\	in	1f	.	1a-	.	8dd\	.	8ff\	.
.	.	.	.	.	16f/	.	.	.	.	.	.	.	.	.	.	.	.	.	.	.	.	.	.	.
8BB-/	.	.	8d|>\	.	16f/	.	4b-\ 4aa-X	.	.	.	.	.	.	.	.	.	.	.	.	.	4ff\	.	4aa-\	.
.	.	.	.	.	16f/	.	.	.	.	.	.	.	.	.	.	.	.	.	.	.	.	.	.	.
8D/	.	.	8f|>\	.	16f/	.	.	.	.	.	.	.	.	.	.	.	.	.	.	.	.	.	.	.
.	.	.	.	.	16f/	.	.	.	.	.	.	.	.	.	.	.	.	.	.	.	.	.	.	.
8BB-/J	.	.	8d|>\J	.	16f/	.	(16ff\LL	.	8D/	re-	8B-\	re-	8a-\	re-	8ff\	re-	.	.	.	.	8ff\	.	8aa-\	.
.	.	.	.	.	16f/JJ	.	16dd\JJ)	.	.	.	.	.	.	.	.	.	.	.	.	.	.	.	.	.
8D/L	6 5	.	8f|>\L	.	16f/LL	.	8b-\L	.	4D/	-miſ-	4B-\	-miſ-	4a-\	-miſ-	4ff\	-miſ-	.	.	.	.	2ff\	.	2aa-\	.
.	.	.	.	.	16f/	.	.	.	.	.	.	.	.	.	.	.	.	.	.	.	.	.	.	.
8BB-/	.	.	8d|>\	.	16f/	.	8b-\	.	.	.	.	.	.	.	.	.	.	.	.	.	.	.	.	.
.	.	.	.	.	16f/	.	.	.	.	.	.	.	.	.	.	.	.	.	.	.	.	.	.	.
8D/	.	.	8f|>\	.	16f/	.	8b-\ 8aa-	.	4D/	-si-	4B-\	-si-	4a-\	-si-	4ff\	-si-	.	.	.	.	.	.	.	.
.	.	.	.	.	16f/	.	.	.	.	.	.	.	.	.	.	.	.	.	.	.	.	.	.	.
8BB-/J	.	.	8d|>\J	.	16f/	.	8b-\J 8aa-	.	.	.	.	.	.	.	.	.	.	.	.	.	.	.	.	.
.	.	.	.	.	16f/JJ	.	.	.	.	.	.	.	.	.	.	.	.	.	.	.	.	.	.	.
!	!	!	!LO:LB:g=original	!	!	!	!LO:LB:g=original	!	!	!	!	!	!	!	!	!	!	!	!	!	!	!	!	!
=55	=55	=55	=55	=55	=55	=55	=55	=55	=55	=55	=55	=55	=55	=55	=55	=55	=55	=55	=55	=55	=55	=55	=55	=55
8E-\L	5_ 3_	.	8g\L	.	16g/LL	.	8gg\	.	2E-\	-o-	2B-\	-o-	2g\	-o-	2ee-\	-o-	4e-\	.	4g\	.	2ee-\	.	2gg\	.
.	.	.	.	.	16g/	.	.	.	.	.	.	.	.	.	.	.	.	.	.	.	.	.	.	.
8BB-\	.	.	8e-\	.	16g/	.	4b-\ 4bb-	.	.	.	.	.	.	.	.	.	.	.	.	.	.	.	.	.
.	.	.	.	.	16g/	.	.	.	.	.	.	.	.	.	.	.	.	.	.	.	.	.	.	.
8E-\	.	.	8g\	.	16g/	.	.	.	.	.	.	.	.	.	.	.	4G/	.	4e-\	.	.	.	.	.
.	.	.	.	.	16g/	.	.	.	.	.	.	.	.	.	.	.	.	.	.	.	.	.	.	.
8BB-\J	x x	.	8e-\J	.	16g/	.	(16gg\LL	.	.	.	.	.	.	.	.	.	.	.	.	.	.	.	.	.
.	.	.	.	.	16g/JJ	.	16ee-\JJ)	.	.	.	.	.	.	.	.	.	.	.	.	.	.	.	.	.
8E-\L	.	.	8g|>\L	.	16g/LL	.	12b-|>\L	.	2E-\	-nem	2B-\	-nem	2g\	-nem	2ee-\	-nem	2G/	.	2e-\	.	2b-\	.	2ee-\	.
.	.	.	.	.	16g/	.	.	.	.	.	.	.	.	.	.	.	.	.	.	.	.	.	.	.
.	.	.	.	.	.	.	12ee-|>\	.	.	.	.	.	.	.	.	.	.	.	.	.	.	.	.	.
8BB-\	.	.	8e-|>\	.	16g/	.	.	.	.	.	.	.	.	.	.	.	.	.	.	.	.	.	.	.
.	.	.	.	.	.	.	12b-|>\J	.	.	.	.	.	.	.	.	.	.	.	.	.	.	.	.	.
.	.	.	.	.	16g/	.	.	.	.	.	.	.	.	.	.	.	.	.	.	.	.	.	.	.
8E-\	.	.	8g|>\	.	16g/	.	12g|</L	.	.	.	.	.	.	.	.	.	.	.	.	.	.	.	.	.
.	.	.	.	.	16g/	.	.	.	.	.	.	.	.	.	.	.	.	.	.	.	.	.	.	.
.	.	.	.	.	.	.	12b-|</	.	.	.	.	.	.	.	.	.	.	.	.	.	.	.	.	.
8BB-\J	.	.	8e-|>\J	.	16g/	.	.	.	.	.	.	.	.	.	.	.	.	.	.	.	.	.	.	.
.	.	.	.	.	.	.	12g|</J	.	.	.	.	.	.	.	.	.	.	.	.	.	.	.	.	.
.	.	.	.	.	16g/JJ	.	.	.	.	.	.	.	.	.	.	.	.	.	.	.	.	.	.	.
!	!	!	!	!	!	!	!	!	!	!	!	!	!LO:LB:g=original	!	!LO:LB:g=original	!	!	!	!	!	!	!	!	!
=56	=56	=56	=56	=56	=56	=56	=56	=56	=56	=56	=56	=56	=56	=56	=56	=56	=56	=56	=56	=56	=56	=56	=56	=56
8D\L	6	.	8f|>\L	.	16f/LL	.	8f/	.	2D\	pec-	2B-\	pec-	2a-\	pec-	2ff\	pec-	4B-/	.	4f\	.	8dd\	.	8ff\	.
.	.	.	.	.	16f/	.	.	.	.	.	.	.	.	.	.	.	.	.	.	.	.	.	.	.
8BB-\	.	.	8d|>\	.	16f/	.	4b-\ 4aa-	.	.	.	.	.	.	.	.	.	.	.	.	.	4ff\	.	4aa-\	.
.	.	.	.	.	16f/	.	.	.	.	.	.	.	.	.	.	.	.	.	.	.	.	.	.	.
8D\	.	.	8f|>\	.	16f/	.	.	.	.	.	.	.	.	.	.	.	2f\	.	2a-\	.	.	.	.	.
.	.	.	.	.	16f/	.	.	.	.	.	.	.	.	.	.	.	.	.	.	.	.	.	.	.
8BB-\J	.	.	8d|>\J	.	16f/	.	(16ff\LL	.	.	.	.	.	.	.	.	.	.	.	.	.	8ff\	.	8aa-\	.
.	.	.	.	.	16f/JJ	.	16dd\JJ)	.	.	.	.	.	.	.	.	.	.	.	.	.	.	.	.	.
8D\L	6 5 3	.	8f|>\L	.	16f/LL	.	8b-\L	.	2D\	-ca-	2B-\	-ca-	2a-\	-ca-	2ff\	-ca-	.	.	.	.	2ff\	.	2aa-\	.
.	.	.	.	.	16f/	.	.	.	.	.	.	.	.	.	.	.	.	.	.	.	.	.	.	.
8BB-\	.	.	8d|>\	.	16f/	.	8b-\	.	.	.	.	.	.	.	.	.	.	.	.	.	.	.	.	.
.	.	.	.	.	16f/	.	.	.	.	.	.	.	.	.	.	.	.	.	.	.	.	.	.	.
8D\	.	.	8f|>\	.	16f/	.	8b-\ 8aa-	.	.	.	.	.	.	.	.	.	4f\	.	4a-\	.	.	.	.	.
.	.	.	.	.	16f/	.	.	.	.	.	.	.	.	.	.	.	.	.	.	.	.	.	.	.
8BB-\J	.	.	8d|>\J	.	16f/	.	8b-\J 8aa-	.	.	.	.	.	.	.	.	.	.	.	.	.	.	.	.	.
.	.	.	.	.	16f/JJ	.	.	.	.	.	.	.	.	.	.	.	.	.	.	.	.	.	.	.
!	!	!	!	!	!	!	!	!	!LO:LB:g=original	!	!	!	!	!	!	!	!	!	!	!	!	!	!	!
=57	=57	=57	=57	=57	=57	=57	=57	=57	=57	=57	=57	=57	=57	=57	=57	=57	=57	=57	=57	=57	=57	=57	=57	=57
8E-\L	5 3	.	8g\L	.	16g/LL	.	8gg\	.	2E-\	-to-	2B-\	-to-	2g\	-to-	2ee-\	-to-	4e-\	.	4g\	.	2ee-\	.	2gg\	.
.	.	.	.	.	16g/	.	.	.	.	.	.	.	.	.	.	.	.	.	.	.	.	.	.	.
8BB-\	.	.	8e-\	.	16g/	.	4bb-\	.	.	.	.	.	.	.	.	.	.	.	.	.	.	.	.	.
.	.	.	.	.	16g/	.	.	.	.	.	.	.	.	.	.	.	.	.	.	.	.	.	.	.
8E-\	.	.	8g\	.	16g/	.	.	.	.	.	.	.	.	.	.	.	4G/	.	4e-\	.	.	.	.	.
.	.	.	.	.	16g/	.	.	.	.	.	.	.	.	.	.	.	.	.	.	.	.	.	.	.
8BB-\J	.	.	8e-\J	.	16g/	.	(16gg\LL	.	.	.	.	.	.	.	.	.	.	.	.	.	.	.	.	.
.	.	.	.	.	16g/JJ	.	16ee-\JJ)	.	.	.	.	.	.	.	.	.	.	.	.	.	.	.	.	.
8E-\L	.	.	8g\L	.	16g/LL	.	12b-\L	.	2E-\	-rum	2B-\	-rum	2g\	-rum	2ee-\	-rum	2G/	.	2e-\	.	2b-\	.	2ee-\	.
.	.	.	.	.	16g/	.	.	.	.	.	.	.	.	.	.	.	.	.	.	.	.	.	.	.
.	.	.	.	.	.	.	12ee-\	.	.	.	.	.	.	.	.	.	.	.	.	.	.	.	.	.
8BB-\	.	.	8e-\	.	16g/	.	.	.	.	.	.	.	.	.	.	.	.	.	.	.	.	.	.	.
.	.	.	.	.	.	.	12b-\J	.	.	.	.	.	.	.	.	.	.	.	.	.	.	.	.	.
.	.	.	.	.	16g/	.	.	.	.	.	.	.	.	.	.	.	.	.	.	.	.	.	.	.
8E-\	.	.	8g\	.	16g/	.	12g\L	.	.	.	.	.	.	.	.	.	.	.	.	.	.	.	.	.
.	.	.	.	.	16g/	.	.	.	.	.	.	.	.	.	.	.	.	.	.	.	.	.	.	.
.	.	.	.	.	.	.	12b-\	.	.	.	.	.	.	.	.	.	.	.	.	.	.	.	.	.
8BB-\J	.	.	8e-\J	.	16g/	.	.	.	.	.	.	.	.	.	.	.	.	.	.	.	.	.	.	.
.	.	.	.	.	.	.	12g\J	.	.	.	.	.	.	.	.	.	.	.	.	.	.	.	.	.
.	.	.	.	.	16g/JJ	.	.	.	.	.	.	.	.	.	.	.	.	.	.	.	.	.	.	.
*Xtremolo	*	*	*	*	*Xtremolo	*	*	*	*	*	*	*	*	*	*	*	*	*	*	*	*	*	*	*
=58	=58	=58	=58	=58	=58	=58	=58	=58	=58	=58	=58	=58	=58	=58	=58	=58	=58	=58	=58	=58	=58	=58	=58	=58
!	!	!	!	!	!	!	!	!	!	!	!	!	!	!	!LO:TX:a:t=Solo	!	!	!	!	!	!	!	!	!
4BB-/	.	.	8f\L	.	4B-/ 4f	.	4f/	.	4B-\	Et	4d\	et	4b-\	Et	4ff\	Et	4B-/	.	4f\	.	4dd\	.	4ff\	.
.	.	.	8b-\	.	.	.	.	.	.	.	.	.	.	.	.	.	.	.	.	.	.	.	.	.
4r	.	.	8b-\	.	4r	.	4r	.	4d\	ex-	4f\	ex-	4ff\	ex-	4aa-\	ex-	4r	.	4r	.	4ff\	.	4aa-\	.
.	.	.	8b-\J	.	.	.	.	.	.	.	.	.	.	.	.	.	.	.	.	.	.	.	.	.
*	*	*	*tremolo	*	*	*	*	*	*	*	*	*	*	*	*	*	*	*	*	*	*	*	*	*
!	!	!	!	!LO:DY:b	!	!	!	!	!	!	!	!	!	!	!	!	!	!	!	!	!	!	!	!
2r	.	.	8b-\L	p	2r	.	2r	.	4e-\	-pec-	4e-\	-pec-	4ee-\	-pec-	4gg\	-pec-	2r	.	2r	.	(4ee-\	.	4gg\	.
.	.	.	8b-\	.	.	.	.	.	.	.	.	.	.	.	.	.	.	.	.	.	.	.	.	.
.	.	.	8b-\	.	.	.	.	.	4B-\	-to	4d\	-to	4dd\	-to	4ff\	-to	.	.	.	.	4dd\)	.	4ff\	.
.	.	.	8b-\J	.	.	.	.	.	.	.	.	.	.	.	.	.	.	.	.	.	.	.	.	.
!	!	!	!	!	!	!	!	!	!	!	!	!	!	!	!	!	!LO:LB:g=original	!	!LO:LB:g=original	!	!	!	!LO:LB:g=original	!
=59	=59	=59	=59	=59	=59	=59	=59	=59	=59	=59	=59	=59	=59	=59	=59	=59	=59	=59	=59	=59	=59	=59	=59	=59
*	*	*	*	*	*Xtuplet	*	*	*	*	*	*	*	*	*	*	*	*	*	*	*	*	*	*	*
!	!	!	!	!LO:DY:b	!	!	!	!	!	!	!	!	!	!	!	!	!	!	!	!	!	!	!	!
8E-\L	.	.	8e-\L	f	12e-|</L	.	12gg|>\L	.	1r	.	1r	.	1r	.	1r	.	4G/	.	4g\	.	4ee-\	.	4gg\	.
.	.	.	.	.	(12b-/	.	(12bb-\	.	.	.	.	.	.	.	.	.	.	.	.	.	.	.	.	.
8E-\	.	.	8e-\	.	.	.	.	.	.	.	.	.	.	.	.	.	.	.	.	.	.	.	.	.
.	.	.	.	.	12g/J)	.	12gg\J)	.	.	.	.	.	.	.	.	.	.	.	.	.	.	.	.	.
8B-|>\	.	.	8e-\	.	12e-|</L	.	12ee-|>\L	.	.	.	.	.	.	.	.	.	4E-/	.	4e-\	.	4e-/	.	4ee-\	.
.	.	.	.	.	(12b-/	.	(12gg\	.	.	.	.	.	.	.	.	.	.	.	.	.	.	.	.	.
8B-|>\J	.	.	8e-\J	.	.	.	.	.	.	.	.	.	.	.	.	.	.	.	.	.	.	.	.	.
.	.	.	.	.	12g/J)	.	12ee-\J)	.	.	.	.	.	.	.	.	.	.	.	.	.	.	.	.	.
*	*	*	*Xtremolo	*	*	*	*	*	*	*	*	*	*	*	*	*	*	*	*	*	*	*	*	*
8G|>\L	.	.	8B-/L	.	12e-|</L	.	12b-|>\L	.	.	.	.	.	.	.	.	.	4B-/	.	4b-\	.	4b-/	.	4bb-\	.
.	.	.	.	.	(12b-/	.	(12ee-\	.	.	.	.	.	.	.	.	.	.	.	.	.	.	.	.	.
8G|>\	.	.	8B-/	.	.	.	.	.	.	.	.	.	.	.	.	.	.	.	.	.	.	.	.	.
.	.	.	.	.	12g/J)	.	12b-\J)	.	.	.	.	.	.	.	.	.	.	.	.	.	.	.	.	.
!	!	!	!	!	!	!	!LO:LB:g=original	!	!	!	!	!	!	!	!	!	!	!	!	!	!	!	!	!
=-	=-	=-	=-	=-	=-	=-	=-	=-	=-	=-	=-	=-	=-	=-	=-	=-	=-	=-	=-	=-	=-	=-	=-	=-
8E-|>\	.	.	8G/	.	12e-|</L	.	12g|</L	.	.	.	.	.	.	.	.	.	4G/	.	4g\	.	4g/	.	4gg\	.
.	.	.	.	.	(12b-/	.	(12b-/	.	.	.	.	.	.	.	.	.	.	.	.	.	.	.	.	.
8E-|>\J	.	.	8G/J	.	.	.	.	.	.	.	.	.	.	.	.	.	.	.	.	.	.	.	.	.
.	.	.	.	.	12g/J)	.	12g/J)	.	.	.	.	.	.	.	.	.	.	.	.	.	.	.	.	.
!	!	!	!	!	!	!	!	!	!	!	!	!	!	!	!	!	!	!	!	!	!LO:PB:g=original	!	!	!
=60	=60	=60	=60	=60	=60	=60	=60	=60	=60	=60	=60	=60	=60	=60	=60	=60	=60	=60	=60	=60	=60	=60	=60	=60
*	*	*	*	*	*	*	*	*	*	*	*	*	*	*	*	*	*	*	*	*	*k[b-e-a-]	*	*	*
!	!	!	!LO:TX:t=P:problem=mixed beam	!	!	!	!	!	!	!	!	!	!	!	!	!	!	!	!	!	!	!	!	!
4BB-/	.	.	8B-/L	.	4d/	.	4f/	.	8BB-/	re-	8d\	re-	8dd\	re-	8ff\	re-	4B-/	.	4f\	.	4dd\	.	4ff\	.
.	.	.	8b-\	.	.	.	.	.	8BB-/	-sur-	8d\	-sur-	8dd\	-sur-	8ff\	-sur-	.	.	.	.	.	.	.	.
!	!	!	!	!LO:DY:b	!	!	!	!	!	!	!	!	!	!	!	!	!	!	!	!	!	!	!	!
4r	.	.	8b-\	p	4r	.	4r	.	8D/	-rec-	8f\	-rec-	8ff\	-rec-	8aa-\	-rec-	4r	.	4r	.	4ff\	.	4aa-\	.
.	.	.	8b-\J	.	.	.	.	.	8D/	-ti-	8f\	-ti-	8ff\	-ti-	8aa-\	-ti-	.	.	.	.	.	.	.	.
*	*	*	*tremolo	*	*	*	*	*	*	*	*	*	*	*	*	*	*	*	*	*	*	*	*	*
!	!	!	!	!	!	!	!	!	!	!	!	!	!LO:SIC:v:s=4ee-\	!	!	!	!	!	!	!	!	!	!	!
2r	.	.	8b-\L	.	2r	.	2r	.	4E-/	-o-	4e-\	-o-	4cc\	-o-	4gg\	-o-	2r	.	2r	.	4ee-\	.	4gg\	.
.	.	.	8b-\	.	.	.	.	.	.	.	.	.	.	.	.	.	.	.	.	.	.	.	.	.
!	!	!	!	!	!	!	!	!	!	!	!	!	!LO:SIC:v:s=4dd\	!	!	!	!	!	!	!	!	!	!	!
.	.	.	8b-\	.	.	.	.	.	4BB-/	-nem	4d\	-nem	4b-\	-nem	4ff\	-nem	.	.	.	.	4dd\	.	4ff\	.
.	.	.	8b-\J	.	.	.	.	.	.	.	.	.	.	.	.	.	.	.	.	.	.	.	.	.
!	!	!	!LO:LB:g=original	!	!LO:LB:g=original	!	!	!	!	!	!LO:LB:g=original	!	!	!	!	!	!	!	!	!	!	!	!	!
=61	=61	=61	=61	=61	=61	=61	=61	=61	=61	=61	=61	=61	=61	=61	=61	=61	=61	=61	=61	=61	=61	=61	=61	=61
!	!	!	!	!LO:DY:b	!	!	!	!	!	!	!LO:TX:a:t=1	!	!	!	!	!	!	!	!	!	!	!	!	!
8E-|>\L	.	.	8e-\L	f	12e-|</L	.	12gg|>\L	.	1r	.	1r	.	1r	.	1r	.	4G|</	.	4g\	.	4ee-\	.	4gg\	.
.	.	.	.	.	(12b-/	.	(12bb-\	.	.	.	.	.	.	.	.	.	.	.	.	.	.	.	.	.
8E-|>\	.	.	8e-\	.	.	.	.	.	.	.	.	.	.	.	.	.	.	.	.	.	.	.	.	.
.	.	.	.	.	12g/J)	.	12gg\J)	.	.	.	.	.	.	.	.	.	.	.	.	.	.	.	.	.
8B-|>\	.	.	8e-\	.	12e-|</L	.	12ee-|>\L	.	.	.	.	.	.	.	.	.	4E-|</	.	4e-\	.	4e-/	.	4ee-\	.
.	.	.	.	.	(12b-/	.	(12gg\	.	.	.	.	.	.	.	.	.	.	.	.	.	.	.	.	.
8B-|>\J	.	.	8e-\J	.	.	.	.	.	.	.	.	.	.	.	.	.	.	.	.	.	.	.	.	.
.	.	.	.	.	12g/J)	.	12ee-\J)	.	.	.	.	.	.	.	.	.	.	.	.	.	.	.	.	.
!LO:LB:g=original	!	!	!	!	!	!	!	!	!	!	!	!	!	!	!	!	!	!	!	!	!	!	!	!
=-	=-	=-	=-	=-	=-	=-	=-	=-	=-	=-	=-	=-	=-	=-	=-	=-	=-	=-	=-	=-	=-	=-	=-	=-
*	*	*	*Xtremolo	*	*	*	*	*	*	*	*	*	*	*	*	*	*	*	*	*	*	*	*	*
8G|>\L	.	.	8B-/L	.	12e-|</L	.	12b-|>\L	.	.	.	.	.	.	.	.	.	4B-|</	.	4b-\	.	4b-/	.	4bb-\	.
.	.	.	.	.	(12b-/	.	(12ee-\	.	.	.	.	.	.	.	.	.	.	.	.	.	.	.	.	.
8G|>\	.	.	8B-/	.	.	.	.	.	.	.	.	.	.	.	.	.	.	.	.	.	.	.	.	.
.	.	.	.	.	12g/J)	.	12b-\J)	.	.	.	.	.	.	.	.	.	.	.	.	.	.	.	.	.
8E-|>\	.	.	8G/	.	12e-|</L	.	12g|</L	.	.	.	.	.	.	.	.	.	4G|</	.	4g\	.	4g/	.	4gg\	.
.	.	.	.	.	(12b-/	.	(12b-/	.	.	.	.	.	.	.	.	.	.	.	.	.	.	.	.	.
8E-|>\J	.	.	8G/J	.	.	.	.	.	.	.	.	.	.	.	.	.	.	.	.	.	.	.	.	.
.	.	.	.	.	12g/J)	.	12g/J)	.	.	.	.	.	.	.	.	.	.	.	.	.	.	.	.	.
!	!	!	!	!	!	!	!	!	!	!	!	!	!LO:PB:g=original	!	!	!	!	!	!	!	!	!	!	!
=62	=62	=62	=62	=62	=62	=62	=62	=62	=62	=62	=62	=62	=62	=62	=62	=62	=62	=62	=62	=62	=62	=62	=62	=62
4BB-/	.	.	4B-/	.	4d/	.	4f/	.	4B-\	mor-	4B-\	mor-	4dd\	mor-	4ff\	mor-	4B-/	.	4f\	.	(4dd\	.	4ff\	.
4r	.	.	4b-\	.	4r	.	4r	.	4B-\	-tu-	4B-\	-tu-	4ee-\	-tu-	4gg\	-tu-	4r	.	4r	.	4ee-\)	.	4gg\	.
2r	.	.	2b-\	.	2r	.	2r	.	2B-\	-o-	2B-\	-o-	(4dd\	-o-	(4ff\	-o-	2r	.	2r	.	4dd\	.	4ff\	.
!	!	!	!	!	!	!	!	!	!	!	!	!	!	!	!	!	!	!	!	!	!LO:SIC:v:s=4ee-\	!	!	!
.	.	.	.	.	.	.	.	.	.	.	.	.	4ee-\)	.	4gg\)	.	.	.	.	.	4dd\	.	4gg\	.
=63	=63	=63	=63	=63	=63	=63	=63	=63	=63	=63	=63	=63	=63	=63	=63	=63	=63	=63	=63	=63	=63	=63	=63	=63
!LO:TX:t=P:problem=mixed beam	!	!	!LO:TX:t=P:problem=mixed beam	!	!	!	!	!	!	!	!	!	!	!	!	!	!	!	!	!	!	!	!	!
!	!	!	!	!LO:DY:b	!	!	!	!	!	!	!	!	!	!	!	!	!	!	!	!	!	!	!	!
8BB-/L	.	.	8b-\L	f	8f/L	.	8b-\L 8ff	.	4B-\	-rum	4B-\	-rum	4dd\	-rum.	4ff\	-rum	8B-/L	.	8f\L	.	8dd'\L	.	8ff\L	.
16B-|>\L	.	.	16B-|</L	.	16d/L 16b-	.	16b-\L 16bb-	.	.	.	.	.	.	.	.	.	16B-/L	.	16b-\L	.	16dd'\L	.	16bb-\L	.
16B-|>\JJ	.	.	16B-|</JJ	.	16d/JJ 16b-	.	16b-\JJ 16bb-	.	.	.	.	.	.	.	.	.	16B-/JJ	.	16b-\JJ	.	16dd'\JJ	.	16bb-\JJ	.
8B-|>\L	.	.	8B-|</L	.	8d/L 8b-	.	8b-\L 8bb-	.	4r	.	4r	.	4r	.	4r	.	8B-/L	.	8b-\L	.	8dd\L	.	8bb-\L	.
8B-|>\J	.	.	8B-|</J	.	8d/J 8b-	.	8b-\J 8bb-	.	.	.	.	.	.	.	.	.	8B-/J	.	8b-\J	.	8dd\J	.	8bb-\J	.
4BB-/	.	.	4B-/	.	4d/ 4b-	.	4b-\ 4bb-	.	2r	.	2r	.	2r	.	2r	.	4B-/	.	4b-\	.	4dd\	.	4bb-\	.
4r	.	.	4r	.	4r	.	4b-\	.	.	.	.	.	.	.	.	.	4r	.	4r	.	4r	.	4r	.
!	!	!	!	!	!	!	!	!	!	!	!	!	!	!	!LO:LB:g=original	!	!	!	!	!	!	!	!	!
=64	=64	=64	=64	=64	=64	=64	=64	=64	=64	=64	=64	=64	=64	=64	=64	=64	=64	=64	=64	=64	=64	=64	=64	=64
!	!	!	!	!	!	!	!	!	!	!	!	!	!	!	!	!	!	!	!	!	!LO:TX:a:t=3	!	!LO:TX:a:t=3	!
2e-|>\	.	.	2e-\	.	8r	.	8r	.	2E-\	Et	2e-\	Et	2ee-\	Et	2ee-\	Et	0r	.	0r	.	0r	.	0r	.
.	.	.	.	.	8ee-\L	.	8ee-\L	.	.	.	.	.	.	.	.	.	.	.	.	.	.	.	.	.
.	.	.	.	.	8ee-\	.	8ee-\	.	.	.	.	.	.	.	.	.	.	.	.	.	.	.	.	.
.	.	.	.	.	8ee-\J	.	8ee-\J	.	.	.	.	.	.	.	.	.	.	.	.	.	.	.	.	.
!	!	!	!	!LO:DY:b	!	!	!	!	!	!	!	!	!	!	!	!	!	!	!	!	!	!	!	!
2B-|>\	.	.	2B-/	p	8r	.	8r	.	4B-\	vi-	4B-\	vi-	4b-\	vi-	4b-\	vi-	.	.	.	.	.	.	.	.
.	.	.	.	.	8b-\L	.	8b-\L	.	.	.	.	.	.	.	.	.	.	.	.	.	.	.	.	.
.	.	.	.	.	8b-\	.	8b-\	.	4B-\	-tam	4B-\	-tam	4b-\	-tam	4b-\	-tam	.	.	.	.	.	.	.	.
.	.	.	.	.	8b-\J	.	8b-\J	.	.	.	.	.	.	.	.	.	.	.	.	.	.	.	.	.
!	!	!	!	!	!	!	!LO:LB:g=original	!	!	!	!	!	!	!	!	!	!	!	!	!	!	!	!	!
=65	=65	=65	=65	=65	=65	=65	=65	=65	=65	=65	=65	=65	=65	=65	=65	=65	=65	=65	=65	=65	=65	=65	=65	=65
2c|>\	.	.	2c/	.	8r	.	8r	.	2c\	ven-	2c\	Ven-	2cc\	ven-	2cc\	ven-	.	.	.	.	.	.	.	.
.	.	.	.	.	8cc\L	.	8cc\L	.	.	.	.	.	.	.	.	.	.	.	.	.	.	.	.	.
.	.	.	.	.	8cc\	.	8cc\	.	.	.	.	.	.	.	.	.	.	.	.	.	.	.	.	.
.	.	.	.	.	8cc\J	.	8cc\J	.	.	.	.	.	.	.	.	.	.	.	.	.	.	.	.	.
!	!	!	!	!	!	!	!	!	!LO:LB:g=original	!	!	!	!	!	!	!	!	!	!	!	!	!	!	!
=-	=-	=-	=-	=-	=-	=-	=-	=-	=-	=-	=-	=-	=-	=-	=-	=-	=-	=-	=-	=-	=-	=-	=-	=-
2A-|>\	.	.	2A-/	.	8r	.	8r	.	4A-\	-tu-	4A-\	-tu-	4a-\	-tu-	4a-\	-tu-	.	.	.	.	.	.	.	.
.	.	.	.	.	8a-/L	.	8a-\L	.	.	.	.	.	.	.	.	.	.	.	.	.	.	.	.	.
.	.	.	.	.	8a-/	.	8a-\	.	4A-\	-ri	4A-\	-ri	4a-\	-ri	4a-\	-ri	.	.	.	.	.	.	.	.
.	.	.	.	.	8a-/J	.	8a-\J	.	.	.	.	.	.	.	.	.	.	.	.	.	.	.	.	.
=66	=66	=66	=66	=66	=66	=66	=66	=66	=66	=66	=66	=66	=66	=66	=66	=66	=66	=66	=66	=66	=66	=66	=66	=66
4G\	.	.	4e-|>\	.	4g|</	.	4g|</	.	4E-\	Sae-	4G/	Sae-	4g\	sae-	4g\	sae-	1r	.	1r	.	1r	.	1r	.
4G\	6	.	4g|>\	.	(4B-/	.	(4b-/	.	4G\	-cu-	4B-/	-cu-	4b-\	-cu-	4b-\	-cu-	.	.	.	.	.	.	.	.
4A-\	6 5	.	4a-|>\	.	4c/	.	4cc/	.	4A-\	-li	4c\	-li	4cc\	-li	4cc\	-li	.	.	.	.	.	.	.	.
4B-\	7	.	4b-\	.	4d/)	.	4dd/)	.	4B-\	A-	4d\	A-	4dd\	A-	4dd\	A-	.	.	.	.	.	.	.	.
!	!	!	!	!	!LO:LB:g=original	!	!	!	!	!	!	!	!	!	!	!	!LO:LB:g=original	!	!	!	!	!	!	!
=67	=67	=67	=67	=67	=67	=67	=67	=67	=67	=67	=67	=67	=67	=67	=67	=67	=67	=67	=67	=67	=67	=67	=67	=67
4e-\	.	.	4e-\	.	4e-/	.	4ee-\	.	4E-\	-men	4e-\	-men	4ee-\	-men,	4ee-\	-men	4r	.	4r	.	4r	.	4r	.
4E-\	.	.	4E-/	.	4e-/	.	4e-/	.	4r	.	4r	.	4r	.	4r	.	8r	.	8r	.	8r	.	8r	.
!	!	!	!	!	!	!	!	!	!	!	!	!	!	!	!	!	!	!	!	!	!LO:TX:t=P:problem=8\left	!	!	!
.	.	.	.	.	.	.	.	.	.	.	.	.	.	.	.	.	8B-/	.	8f\	.	8dd\	.	8ff\	.
2r	.	.	2r	.	2r	.	2r	.	2r	.	2r	.	2r	.	2r	.	4e-\	.	4g\	.	4ee-\	.	4gg\	.
.	.	.	.	.	.	.	.	.	.	.	.	.	.	.	.	.	4B-/	.	4f\	.	4dd\	.	4ff\	.
!	!	!	!LO:LB:g=original	!	!	!	!	!	!	!	!	!	!LO:LB:g=original	!	!	!	!	!	!LO:LB:g=original	!	!LO:LB:g=original	!	!LO:LB:g=original	!
=68	=68	=68	=68	=68	=68	=68	=68	=68	=68	=68	=68	=68	=68	=68	=68	=68	=68	=68	=68	=68	=68	=68	=68	=68
4E-\	.	.	4e-|>\	.	4e-|</	.	4g|</	.	4E-\	A-	4G/	A-	4g\	A-	4ee-\	A-	4G/	.	4e-\	.	4b-\	.	4ee-\	.
4G\	6	.	4g|>\	.	(4B-/	.	(4b-/	.	4G\	-men	4B-\	.	4b-\	-men	4b-\	-men	4r	.	4r	.	4r	.	4r	.
4A-\	6 5	.	4a-|>\	.	4c/	.	4cc/)	.	(4A-\	A-	4c\	.	4cc\	A-	4cc\	A-	2r	.	2r	.	2r	.	2r	.
4B-\	7	.	4b-|>\	.	4d/)	.	4dd|</	.	4B-\)	.	4d\	.	4dd\	.	4dd\	.	.	.	.	.	.	.	.	.
!	!	!	!	!	!	!	!	!	!	!	!LO:LB:g=original	!	!	!	!	!	!	!	!	!	!	!	!	!
=69	=69	=69	=69	=69	=69	=69	=69	=69	=69	=69	=69	=69	=69	=69	=69	=69	=69	=69	=69	=69	=69	=69	=69	=69
4e-\	.	.	4e-|>\	.	4e-/	.	4ee-\	.	4E-\	-men	4e-\	-men	4ee-\	-men	4ee-\	-men	4r	.	4r	.	4r	.	4r	.
4E-\	.	.	4E-|</	.	4e-/	.	4e-/	.	4r	.	4r	.	4r	.	4r	.	8r	.	8r	.	8r	.	8r	.
.	.	.	.	.	.	.	.	.	.	.	.	.	.	.	.	.	8B-/	.	8f\	.	8dd\	.	8ff\	.
2r	.	.	2r	.	2r	.	2r	.	2r	.	2r	.	2r	.	2r	.	4e-\	.	4g\	.	8ee-|>\L	.	8gg\L	.
.	.	.	.	.	.	.	.	.	.	.	.	.	.	.	.	.	.	.	.	.	(16ff\L	.	16aa-\L	.
.	.	.	.	.	.	.	.	.	.	.	.	.	.	.	.	.	.	.	.	.	16ee-\JJ)	.	16gg\JJ	.
.	.	.	.	.	.	.	.	.	.	.	.	.	.	.	.	.	4B-/	.	4f\	.	8dd|>\L	.	8ff\L	.
.	.	.	.	.	.	.	.	.	.	.	.	.	.	.	.	.	.	.	.	.	(16ee-\L	.	16gg\L	.
.	.	.	.	.	.	.	.	.	.	.	.	.	.	.	.	.	.	.	.	.	16dd\JJ)	.	16ff\JJ	.
=70	=70	=70	=70	=70	=70	=70	=70	=70	=70	=70	=70	=70	=70	=70	=70	=70	=70	=70	=70	=70	=70	=70	=70	=70
!	!	!	!	!	!	!LO:DY:a	!	!LO:DY:b:t=ffor.	!	!	!	!	!	!	!	!	!	!LO:DY:b:rj	!	!	!	!	!	!
4E-\	.	.	4B-/	.	4B-/ 4g	f	4e-/ 4ee-	ff	4E-\	A-	4B-\	A-	4b-\	A-	4ee-\	A-	4G/	f	4e-\	.	4b-\	.	4ee-\	.
!	!	!	!	!LO:DY:b	!	!	!	!	!	!	!	!	!	!	!	!	!	!	!	!	!	!	!	!
4A-\	6	.	4b-\	f	4f/ 4dd	.	4b-\ 4ff	.	4A-\	.	4d\	.	4dd\	.	4ff\	.	4B-/	.	4f\	f	4dd\	.	4ff\	.
4B-\	6 4	.	4b-\	.	4g/ 4ee-	.	4b-\ 4gg	.	4B-\	.	4e-\	.	4ee-\	.	4gg\	.	4e-/	.	4g\	.	4ee-\	.	4gg\	.
4BB-/	5 3	.	4b-\	.	4B-/ 4a-	.	4b-\ 4ff	.	4BB-/	.	4f\	.	4dd\	.	4ff\	.	4B-/	.	4f\	.	4b-\	.	4ff\	.
=71	=71	=71	=71	=71	=71	=71	=71	=71	=71	=71	=71	=71	=71	=71	=71	=71	=71	=71	=71	=71	=71	=71	=71	=71
2E-\	5 3	.	2E-/ 2B-	.	2B-/ 2g	.	2G/ 2e- 2ee-	.	2E-\	-men,	2g\	-men.	2b-\	-men,	2ee-\	-men.	2G/	.	2e-\	.	2g/	.	2ee-\	.
!	!	!	!	!	!	!	!	!	!	!	!	!	!	!	!	!	!	!	!	!	!LO:TX:t=P:problem=znak repetycji	!	!	!
2r	.	.	2r	.	2r	.	2r	.	2r	.	2r	.	2r	.	2r	.	2r	.	2r	.	2r	.	2r	.
==	==	==	==	==	==	==	==	==	==	==	==	==	==	==	==	==	==	==	==	==	==	==	==	==
*-	*-	*-	*-	*-	*-	*-	*-	*-	*-	*-	*-	*-	*-	*-	*-	*-	*-	*-	*-	*-	*-	*-	*-	*-
!!!system-decoration: [(s1,s2)][(s3,s4)][(s5,s6,s7,s8)][(s9,s10,s11)]s12
!!!RDF**kern: < = below
!!!RDF**kern: > = above
!!!RDF**kern: | = vertical stroke
!!!ENC: Kamil Watkowski
!!!END: 2020-07-23
!!!ENC: Marta Chmielewska
!!!END: 2022-02-07
!!!YEC: Copyright 2022 Narodowy Instytut Fryderyka Chopina (https://polishscores.org)
!!!YEM: License CC-BY-4.0 (https://creativecommons.org/licenses/by/4.0)
